X:1
T:Vespers in D
T:Moritz Brosig (1815-1887) organ arr. BMarble
T:Vespers in D
T:Copyright © 2014 by CPDL.  This edition can be fully distributed, duplicated, performed, and recorded.
T:Magnificat
T:Copyright © 2014 by CPDL.  This edition can be fully distributed, duplicated, performed, and recorded.
T:Copyright © 2014 by CPDL.  This edition can be fully distributed, duplicated, performed, and recorded.
T:Copyright © 2014 by CPDL.  This edition can be fully distributed, duplicated, performed, and recorded.
T:Copyright © 2014 by CPDL.  This edition can be fully distributed, duplicated, performed, and recorded.
T:Copyright © 2014 by CPDL.  This edition can be fully distributed, duplicated, performed, and recorded.
T:Copyright © 2014 by CPDL.  This edition can be fully distributed, duplicated, performed, and recorded.
T:Copyright © 2014 by CPDL.  This edition can be fully distributed, duplicated, performed, and recorded.
T:Copyright © 2014 by CPDL.  This edition can be fully distributed, duplicated, performed, and recorded.
T:Copyright © 2014 by CPDL.  This edition can be fully distributed, duplicated, performed, and recorded.
T:Copyright © 2014 by CPDL.  This edition can be fully distributed, duplicated, performed, and recorded.
T:Copyright © 2014 by CPDL.  This edition can be fully distributed, duplicated, performed, and recorded.
T:Copyright © 2014 by CPDL.  This edition can be fully distributed, duplicated, performed, and recorded.
T:Copyright © 2014 by CPDL.  This edition can be fully distributed, duplicated, performed, and recorded.
T:Copyright © 2014 by CPDL.  This edition can be fully distributed, duplicated, performed, and recorded.
T:Copyright © 2014 by CPDL.  This edition can be fully distributed, duplicated, performed, and recorded.
T:Copyright © 2014 by CPDL.  This edition can be fully distributed, duplicated, performed, and recorded.
T:Copyright © 2014 by CPDL.  This edition can be fully distributed, duplicated, performed, and recorded.
T:Copyright © 2014 by CPDL.  This edition can be fully distributed, duplicated, performed, and recorded.
T:Copyright © 2014 by CPDL.  This edition can be fully distributed, duplicated, performed, and recorded.
T:Copyright © 2014 by CPDL.  This edition can be fully distributed, duplicated, performed, and recorded.
T:Copyright © 2014 by CPDL.  This edition can be fully distributed, duplicated, performed, and recorded.
T:Copyright © 2014 by CPDL.  This edition can be fully distributed, duplicated, performed, and recorded.
T:Copyright © 2014 by CPDL.  This edition can be fully distributed, duplicated, performed, and recorded.
T:Copyright © 2014 by CPDL.  This edition can be fully distributed, duplicated, performed, and recorded.
T:Copyright © 2014 by CPDL.  This edition can be fully distributed, duplicated, performed, and recorded.
T:Copyright © 2014 by CPDL.  This edition can be fully distributed, duplicated, performed, and recorded.
T:Copyright © 2014 by CPDL.  This edition can be fully distributed, duplicated, performed, and recorded.
T:Copyright © 2014 by CPDL.  This edition can be fully distributed, duplicated, performed, and recorded.
T:Copyright © 2014 by CPDL.  This edition can be fully distributed, duplicated, performed, and recorded.
T:Copyright © 2014 by CPDL.  This edition can be fully distributed, duplicated, performed, and recorded.
T:Copyright © 2014 by CPDL.  This edition can be fully distributed, duplicated, performed, and recorded.
C:Moritz Brosig (1815-1887)
C:organ arr. BMarble
Z:Alleluia verse for Corpus Christi
Z:Copyright © 2014 by CPDL.  This edition can be fully distributed, duplicated, performed, and recorded.
%%score { ( 1 3 ) | ( 2 4 ) } { ( 5 7 ) | ( 6 8 9 10 ) }
L:1/8
Q:1/4=120
M:4/4
K:D
V:1 treble nm="Choir" snm="Choir"
V:3 treble 
V:2 bass 
V:4 bass 
V:5 treble nm="Organ" snm="Org."
V:7 treble 
V:6 bass 
V:8 bass 
V:9 bass 
V:10 bass 
V:1
!f! D4 F4 | A3 A A4 | A4 B2 c2 | d4 D4 | B,4 D4 | F3 F F4 | F4 ^G2 ^A2 | B4 B4 | %8
w: Di- xit|Do- mi- nus|Do- mi- no|me- o,|di- xit|Do- mi- nus|Do- mi- no|me- o:|
w: ||||||||
!p! [GB]4 [GB]2 [GB]2 | [GB]4 [FA]2 [FA]2 | [EG]4 [EG]4 | [EG]4 [DF]4 |!p! [CE]4!<(! [CF]4!<)! | %13
w: Se- de ad|dex- tris, ad|dex- tris|me- is:|Do- nec|
w: |||||
 [CG]4 [CE]4 |!f! [CF]2 [CF]2 [D^G]2 [E^A]2 | [FB]4 F2!ff! [B,B]2 | [Dd]4 [B,B]4 | %17
w: po- nam|i- ni- mi- cos|tu- os, sca-|bel- lum|
w: ||||
 z2!p! [D^E]2 [DE]2 [DE]2 | [DF]4 [CF]4 | ^D4 E2 F2 | (G6 ^G2) |!mf! A8- | A4 G2 A2 | %23
w: pe- dum tu-|o- rum.||||fre- git in|
w: ||Do- mi- nus|con- *|fre-|* git in|
!f! [G_B]4 [GB]4 |!ff! [^Gd]2 [Gd]2 [Gd]2 [Gd]2 | d4 c2!mf! e2 | (A6 G2) | %27
w: di- e|i- rae su- ae|re- ges. *|* De|
w: di- e||* * De|tor- *|
 [D=F]2 [DF][DF] [FA]2 [DF]2 | [D=F]2 [CE]2!f! A2 [AB][Ac] | [Ad]2 [Ad][Ad] [^Gd]2 [Gd]2 | %30
w: ren- te in vi- a|bi- bet: prop- te- re-|a ex- al- ta- bit|
w: ren- te in vi- a|bi- bet: * * *||
 [Ac]2 A2 z4 | z8 |!p! [DF]4 [CE]2 [DF]2 | !>![CG]4 [DF]4 |!mf! [FA]4 [^E^G]2 [FA]2 | %35
w: ca- put.||Glo- ri- a|Pa- tri,|glo- ri- a|
w: |||||
 !>![^EB]3 [EB] [FA]4 |!f! [Fd]4 [Fc]4 |!>(! [GB]3 [GB]!>)! [FA]4 |!p! (G4 F4) | [CE]4 z4 | %40
w: Fi- li- o|et Spi-|ri- tu- i|San- *|cto,|
w: |||||
 z4!f! F2 G2 | z4 d2 e2 | f2 A2 B2 c2 | (d2 F2) G2 ^G2 | [EA]2 [^GB]2 [Ac]2 [EB][EA] | %45
w: si- cut|rat *|||et in sae- cu- la|
w: |si- cut|e- rat in prin-|ci- * pi- o||
 [Dd]2 D2 [DE]2 [DG]2 | ([DF]4 [CE]4) | [DF]2 z2 z4 | z8 |] %49
w: sae- cu- lo- rum.|A- *|men.||
w: ||||
[M:4/4]"^Solo alto"!p![Q:1/4=120] F4 F4 | F4 F4 |!<(! F6!<)! B2 |!>(! B3 ^A!>)! A2 F2 | G4 F4 | %54
w: Con- fi-|te- bor|Ti- bi|Do- mi- ne in|to- to|
w: |||||
 E4 D2 C2 | D2 (EF) E2 D2 | D4 C2 z2 | z4 G2 G2 | G2 FE F2 G2 | A4 A2 A2 | A2 GF (G2 B2 | %61
w: cor- de, in|to- to * cor- de|me- o:|in con-|si- li- * o ju-|sto- rum et|con- gre- * ga- *|
w: |||||||
 A2 F2 D2) G2 | (E6 FG) | F4 z4 |"^Tutti"!ff! [EF]4 [EF]4 | [DF]3 [DF] [DF]4 | ([GB]4 [FA]4 | %67
w: * * * ti-|o- * *|ne.|Mag- na|o- pe- ra|Do- *|
w: ||||||
 [EG]4 [^DF]2) [DF]2 | [EG]4!mf! [GB]2 [FB]2 | B4 A2 (Bc) | [Ad]2 [^Gd]2 [Gd]2 [Gd]2 | %71
w: * * mi-|ni: ex- qui-|si- ta in _|o mnes vo- lun-|
w: ||||
 (d2 c2 d2) e2 |!f! (f4 e4 | d4 e4) | A4 z4 |!p! [=C^D]2 [CD]2 [CD]2 [CD]2 | [^CE]3 [CE] [CE]4 | %77
w: ta- * * tes|e- *||jus.|Sanc- tum et ter-|ri- bi- le,|
w: ||||||
 [CE]2!<(! [CE]2 [CE]2 [CE]2 | [EG]3!<)! [EG] [EG]4 |!f! (G8 | F4) (B2 A2) | %81
w: sanc- tum et ter-|ri- bi- le|no-|* men *|
w: ||||
!>(! ([EG]4!>)! [=FB]4) | [EA]2"^Solo" (C2 D2) E2 | F2 GG A2 ^A2 | B3 c d2 z2 |"^Tutti"!p! G4 F4 | %86
w: e- *|jus, res _ prin-|ci- pi- um sa- pi-|en- ti- ae|ti- mor|
w: |||||
!<(! E4!<)! [GB]4 | [F^A]2 z2 z4 | z8 |!f! (B4 A4 | G3) G F4 |!>(! E8!>)! | [DF]2 z2 z2 [DF]2 | %93
w: Do- mi-|ni.||Glo- *|* ri- a|Pa-|tri et|
w: |||||||
!>(! E6!>)! E2 | [DF]2 z2!p! [DF]2 [DF]2 | [CE]8 | [D^E]4!<)!!<(! [DE]4 |!>(! (F4 ^G4)!>)! | %98
w: Fi- li-|o et Spi-|ri-|tu- i|San- *|
w: |||||
 [CF]2 z2 z4 | z8 |!f! z8 |!f! z2 (c2 d2) c2 | B2 B2 c2 B2 | (=A4 B2) A2 | %104
w: cto,|||rat in prin-|ci- * * pi-|o- et _|
w: |||si- * cut|e- rat in prin-|ci- * pi-|
 [EG]2 [EG]2 [EG]2 [EG]2 | F2 (^G^A) B2 c2 | (d2 B2 e2) B2 | (^A4 B4- | B4 ^A4) | B4 z4 |] %110
w: nunc et sem- per|et in * sae- cu-|lo- * * rum.|A- *||men.|
w: o et nuncd et|sem- per _ et in|sae- cu- lo- rum.||||
[K:G][M:3/4][Q:1/4=80] z2 z"^Solo sopr"!p! F GA | B3 A Bc | d>B G2 G2 | cB AB AG | F2 D2 z2 | %115
w: Be- a- tus|vir, qui ti- met|Do- mi- num: in|man- * da- tis cu- pid|ni- mis.|
w: |||||
 B2!>(! B3!>)! A | A2 G2 GG | F>F (F2 E2) | F2 z2 z2 | z2 z2 DD | AE GB AG | FGAB ^cd | ^cB^Ac BG | %123
w: Po- tens in|ter- ra e- rit|se- men e- *|jus:|ge- ne-|ra- * ti- * o re-|cto- * * * rum *|be- * * * ne- *|
w: ||||||||
 E4 F2 | D3 z z2 |"^Tutti"!f! [Fd]>[Fd] [Fd]2 [Gd][Gd] | [Fd]>[Fd] [Fd]2 z D | %127
w: di- ce-|tur.|Glo- ri- a et di-|vi- ti- ae in|
w: ||||
 [DG][DF] ([DE]2 [^CE]2) | [DF]2 z2!p! FF | F>F F2 FF | [DF][DF]/[DF]/ [DG]2!<(! [DG]2 | %131
w: do- mo e- *|jus, et ju-|sti- ti- a, et ju-|sti- ti- a e- jus|
w: ||||
 [G=c]2 [Fc]2!<)! [Fc]2 | [GB][GB]/[GB]/ [EB]2 [EA]2 | [FB]2 z2 z2 | z6 | z6 | z6 | z6 | z6 | z6 | %140
w: ma- net in|sae- cu- lum sae- cu-|li.|||||||
w: |||||||||
 z6 | z6 | z6 | z6 | z6 |!p! [DG]3 [DG] [DG]2 | [EG]2 [EG]2 z2 | A3 A A2 | B>B B2 z2 | %149
w: |||||Glo- ri- a|Pa- tri,|||
w: |||||||||
 z2!f! [FB]2 [FB]2 | [EB]3!>(! [^DA]!>)! [EG]2 |!p! (G2 A2 G2) | [DF]2!f! D2 D2 | %153
w: et Spi-|ri- tu- i|San- * *|cto, si- cut|
w: ||||
 [Dc]3 [DB][DA][DA] | G>B D2 (GB) | (([Fc]2 [GB]2)) [DA]2 | [DB]2 [DG]2 [Gd][Gd] | %157
w: e- rat in prin-|ci- pi- o et *|nunc _ et|sem- per, et in|
w: ||||
 [G^c]2 [G=c]2 [GB]2 | [Ge][Ge] [FA]2 [Gd]2 | (G2 c2 A2) | G2 z2 z2 | z2 (B2 A2) | G2 z2 z2 | %163
w: sae- cu- la|sae- cu- lo- rum.|A- * *|men,|a- *|men,|
w: ||||||
 z2 (B2 A2) | G2 z2 z2 |][K:D][M:4/4][Q:1/4=100] z8 |!f! D2 [CE]2 [DF]2 z2 | %167
w: a- *|men.||Do- mi- num,|
w: ||||
 z [FA][GB][GB] [FA]>[EG] [DF]2 | DD [CE]>[CE] [CF]2 z2 | z8 | z8 | z8 | z4 z2 z!p! [CE] | %173
w: lau- da- te pu- e- ri|no- men Do- mi- ni.||||A|
w: ||||||
 [=CE]2 [CE]2 [C=F][CF][CF][CF] | [D=F]2 [DF]2 [FG]2 [FG][FG] | %175
w: so- lus or- tu us- que|ad oc- ca- sum lau-|
w: ||
 [EG]>[EG]!<(! [EG]2 [E^G]3!<)! [EG] |!f! (A2!>(! =c>!>)!B) B2 z2 | z!mf! EE[EF] [EG]2 [EG]2 | %178
w: da- bi- te no- men|e- * * jus.|Ex- cel- sus su- per|
w: |||
 FFFF !>![DF]>[CE] [B,D] z | z4 z2 z!p! [EA] | [FA]2!<(! [FA]2 [AB]2!<)! [AB]2 | %181
w: o- mnes gen- tes Do- mi- nus,|et|su- per coe- los|
w: |||
!ff! ([^Gd-]4 [Ad]>)[Ad] [Bd]2 | (d4 c2 B2) | [Ac]2 z2 z4 |!p! (D2!<(! F2)!<)! G2 B2 | %185
w: glo- * ri- a|e- * *|jus.|Glo- * ri- a|
w: ||||
 (A3!>(! G)!>)! F2 B2 |!>(! [CA]3!>)! [CG] [DF]2!f! [FB][FB] | [EA]3 [EG] [EF]4 | %188
w: Pa- * tri et|Fi- li- o et Spi-|ri- tu- i|
w: |||
!<(! (F6!<)! ^E2) | [CF]2 z2 z4 |!f! z (Bc)e d3 =c | B2 G2 GEFG | (A^AB)c d z z =A | B z z F GBed | %194
w: San- *|cto,||* * * * * prin-|ci- * * pi- o et|nunc et sem- per et in|
w: ||si- * cut e- rat,|si- cut e- rat in prin-|ci- * * pi- o *||
 (cB)AG FAdd | (dAGE)"^rit."!ff! D2 dd | [Ddd]4 [Ddd]2 z2 |][M:4/4]!f![Q:1/4=120] [FAd]2 | %198
w: sae- * cu- la sae- cu- lo- rum.|A- * * * men, a- men,|a- men.|Lau-|
w: ||||
 [FAd]4 [FAd]4 | [Gd]3 [Gd] [Gd]4 | [Gc]2 [Fd]2 [Ge]4 | [Fd]2 z2 z2 [Fd]2 | [Fd]4 [Fd]4 | %203
w: da- te|Do- mi- num|o- mnes gen-|tes, lau-|da- te|
w: |||||
 [Fd]4 [Fd]4 | [Fc]2 [Fd]2 [DB]3 [DB] | [CA]2 z2 z4 |!p!"^Solo" z8 | z8 |"^Solo" d3 d d4 | d6 =c2 | %210
w: e- um|o- mnes po- pu-|li,||||con- fir-|
w: |||||quo- ni- am||
 _B3 B B4 | !>!A6 G2 | [D=F]6"^Tutti"!p! [DF]2 | [D_E]2 [DE]2 [=CE]2 [CE][CE] | (_E3 D) D2 D2 | %215
w: ma- ta est|su- per|nos mi-|se- ri- cor- di- a|e- * jus, mi-|
w: |||||
 [D=F]2!<(! [DF]2 [DF]2 [DF][DF] | [=C=F]4!<)! [CE]2 ([DF][EG]) | %217
w: se- ri- cor- di- a|e- jus et _|
w: ||
!f! [=FA]>[=CA] [CA]2 [^CA]2 [CG]2 |!>(! [D=F]4 E2!>)! E2 | D2 D2 !>![DE]4 | [CE]2 z2 z4 | z8 | %222
w: ve- ri- tas Do- mi-|ni ma- net|in ae- ter-|num.||
w: |||||
 z8 | z8 | z8 | z8 | z8 |!p! [DF]4 [DF]2 [DF]2 | !>![CG]4 [DF]2 z2 |!<(! [DF]4 [DF]2!<)! [DF]2 | %230
w: |||||Glo- ri- a|Pa- tri,|glo- ri- a|
w: ||||||||
!>(! [CA]3 [CG]!>)! [DF]2 z2 |!f! d6 d2 |!>(! [Fc]3 [Fc]!>)! [DB]4 |!>(! (A4!>)! G4) | %234
w: Fi- li- o|et Spi-|ri- tu- i|San- *|
w: ||||
 [CF]2 z2 z2!ff! FF | F2 F2 F2 F2 | G3 G G2 G2 | G6 ^G2 | A2 A2 A2 A2 | %239
w: cto, si- cut|e- rat in prin-|ci- pi- o et|nunc et|sem- per et in|
w: |||||
 [FA]2 [Gc][Gc] [Fd]2 [FA]2 | (B8 | A2) A2 A4 | [FA]2 z2 z4 | z4 [CA]4 | D2 z2 z4 |] %245
w: sae- cu- la sae- cu-|lo-|* rum. A-|men,|a-|men.|
w: ||||||
[M:6/8][Q:1/4=80][Q:1/4=80] z6 | z6 | z6 | z6 | z z!p! D FFG | A!<(!AA A2!<)! A |!f! (d3 e2) e | %252
w: ||||Mag- ni- fi- cat|a- ni- ma me- a|Do- * mi-|
w: |||||||
 [Fd] z z z3 | z6 |"^Solo"!p! F3 e2 e | d3 B3 | F3 F2 E | E3 D3 | z3 z2 E | E3 d3 | c3 B3 | %261
w: num.||Et ex- ul-|ta- vit|spi- ri- tus|me- us:|in|De- o|sa- lu-|
w: |||||||||
 A2 A ABF | ^G z z z2 z | cBA ^G!<(!B!<)!d | f!>(!e!>)!d c!p!cB | A2 A (=GAG) | F3 z3 | F3 G3 | %268
w: ta- ri me- * *|o.|Qui- a re- spe- xit hu-|mi- * li- ta- tem an|cil- lae su- * *|ae:|Ec- ce|
w: |||||||
 GG^G A2 A | AF!<(!A d2!<)! d | c!>(!B!>)!A A2 A | A2 A B3 | A3 z3 | z6 | %274
w: e- nim ex hoc be-|a- tam me di- cent|om- * nes ge- ne-|ra- ti- o-|nes.||
w: ||||||
 z3 z"^Tutti"!f! [Ac][Ae] | [A=f]2 [Af] [Ad][Ad][Ad] |!ff! [^Gd]3- [Gd]2 [Gd] | %277
w: Qui- a|fe- cit mag- na, qui|po- * tens|
w: |||
 [Ac]2 z z2!f! [Ae] | [Ag]3 [Ae]3 | [A=f]3 [Ad]2!ff! [Ad] | [=Fd]3 [F=c]3 |!>(! [D_B]3!>)! [DA]3 | %282
w: est: et|sanc- tum|no- men, et|sanc- tum|no- men|
w: |||||
!p! E6 | [^CE]2 z z"^Solo"!mf! AA | _B2 B d>=cB | _B2 A z AA | d3- dBe | =c3 B2 B | A3- (AB)A | %289
w: e-|jus. Et mi-|se- ri- cor- di- a|e- jus a pro-|ge- * * ni-|e in pro-|ge- * * ni-|
w: |||||||
 ^G3 z2!p! e | =c>!>(!cc!>)! d3 | e6 ||[K:C][M:4/4]!ff![Q:1/4=120] [EA]4 [FA]2 [FA]2 | %293
w: es ti-|men- ti- bus e-|um.|Fe- cit po-|
w: ||||
 [Ec]3 [EA] [EA]2 [Ac]2 | [AB]4 [AB]2 [AB]2 | [^GB]2 E2 z4 | [^Gd]4 [Ad]2 [Ad]2 | d3 B B2 B2 | %298
w: ten- ti- am in|brac- chi- o|su- o,|fe- cit po-|ten- ti- am *|
w: ||||* * * in|
 e4 d2 e2 | [Ec]2 [EA]2 z2 z"^Solo"!mf! e | f3 F F2 F2 | F2 E4 e2 | d3 D D2 D2 | (D2 ^C4) C2 | %304
w: |su- o. De-|po- su- it po-|ten- tes, et|ex- al- ta- vit|hu- * mi-|
w: brac- chi- o|su- o. *|||||
 D2 z2 z2!p! D2 | _E3 [_B,E] [B,E]2 [B,E]2 | [C_E]2 [CE]2 z2 [CE]2 | [_B,_E]3 E E2 E2 | %308
w: les, de-|po- su- it po-|ten- tes, de-|po- su- it de|
w: ||||
 [_EF]2 [DF]2 z!f! D[DF]D | [Fd]6 [Fd]2 |!>(! [Fd]4!>)! D4 | ^C2!p! C2 [C=G]2 [CG]2 | %312
w: se- de: et ex- al-|ta- vit|hu- mi-|les. E- su- ri-|
w: ||||
 [DF]2 [DF][DF] [DF]2 [DF]2 | [^CE]2 [CE][EA] [E=G]2 E2 | [FA]2 [FA]2 [F^G]2 [FG][FG] | %315
w: en- tes im- ple- vit|bo- nis: et di- vi-|tes di- mi- sit in-|
w: |||
 [EA]2 [EA]2 z4 | z8 ||[K:D]!p! (D8- | [DF]4)!<(! D2!<)! [DF]2 |!>(! ([FA]6!>)! [EG]2) | %320
w: a- nes.||Glo-|* ri- a|Pa- *|
w: |||||
 [DF]2 z2 z2 [DF]2 |!>(! A6!>)! ^G2 | F2 [CF]4 [DF]2 | (D4 G4 | E3) E A4 | (d4!>)!!>(! c2 B2) | %326
w: tri et|* li-|o et Spi-|ri- *|* tu- i|Sanc- * *|
w: ||||||
 A4 z4 |!f! z8 | z4 c2 e2 | d2 (cB) A2 G2 | F2 G2 A2 (Bc) | [Fd]2 z2 z2 [Af]2 | %332
w: to,|||||nunc et|
w: ||si- cut|e- rat _ in prin-|ci- pi- o et _|nunc *|
 [Gg]2 [Gg]2 z2 [Gg][Gg] | [Ag]2 [Af][Af] [Ae]2 [Ad]2 | ([Ac]2 [GB]2 [FA]2 [EG]2 | F2 A2 D2) G2 | %336
w: sem- per et in|sae- cu- la sae- cu-|lo- * * *|* * * rum.|
w: ||||
 ([DF]4 [CE]4) | D2 z2 [Ge]4 | [Ff]2 z2 [Gc]4 | [Fd]2 z2 z4 |] %340
w: A- *|men, a-|men, a-|men.|
w: ||||
V:2
 [D,D]4 [F,F]4 | [A,A]3 A, A,4 | A,4 B,2 C2 | D4 [D,D]4 | [B,,B,]4 [D,D]4 | [F,F]3 [F,F] [F,F]4 | %6
w: ||||||
w: ||||||
w: ||||||
w: ||||||
 F,4 ^G,2 ^A,2 | B,4 [B,,B,]4 | z8 | z8 | z8 | z8 | [G,B,]4 [F,B,]4 | [E,B,]4 [G,B,]4 | %14
w: ||||||||
w: ||||||||
w: ||||||||
w: ||||||||
 [F,^A,]2 [E,A,]2 [D,B,]2 [C,C]2 | [B,,D]4 [B,,D]2 B,2 | D4 B,4 | z2 [G,B,]2 [G,B,]2 [G,B,]2 | %18
w: ||||
w: ||||
w: ||||
w: ||||
 [F,B,]4 [F,,^A,]4 | z8 | z8 |!mf! A,3 A,!<(! B,2 C2 | D2 _E2!<)! D2 =C2 |!f! _B,4 D4 | %24
w: ||||||
w: ||||||
w: |||Do- mi- nus con-|fre- * git in|* con-|
w: ||||||
 [_B,D]2 [B,D]2 [B,D]2 [B,D]2 | [A,=F]4 [A,,E]2 z2 | z8 | z8 | z4 [A,C]2 [A,D][A,E] | %29
w: |||||
w: |||||
w: i- rae su- ae|||||
w: |||||
 [A,=F]2 [A,F][A,F] [A,D]2 [A,F]2 | [A,E]2 [A,,C]2 z4 | z8 | [D,A,]4 [A,,A,]2 [D,A,]2 | %33
w: ||||
w: ||||
w: ||||
w: ||||
 !>![E,A,]4 [D,A,]4 | [F,C]4 [C,C]2 [F,C]2 | !>![^G,C]3 [G,C] [F,C]4 | B,4 [A,C]4 | %37
w: ||||
w: ||||
w: ||||
w: ||||
 [G,D]3 [G,D] [D,D]4 | D2 E2 A,4 |!f! A,4 C2 D2 | ^D2 E2 =D2 D2 | D3 D B,2 z2 | z4 B,4 | %43
w: ||||||
w: ||||||
w: ||* si- cut|||pi-|
w: ||* si- cut|e- rat in prin-|ci- pi- o|et|
 [F,A,]2 [F,A,]2 [E,B,]2 [D,B,]2 | [C,C]2 [B,,D]2 [A,,E]2 [G,C][G,C] | %45
w: ||
w: ||
w: ||
w: ||
 [F,A,]2 [F,A,]2 [G,B,]2 [B,,G,]2 | A,4 G,4 | [D,F,]2 z2 z4 | z8 |][M:4/4] z8 | z8 | z8 | z8 | z8 | %54
w: |||||||||
w: |||||||||
w: |||||||||
w: |||||||||
 z8 | z8 | z8 | z8 | z8 | z8 | z8 | z8 | z8 | z8 | [^A,C]4 [A,C]4 | B,3 [B,,B,] [B,,B,]4 | %66
w: ||||||||||||
w: ||||||||||||
w: ||||||||||||
w: ||||||||||||
 [G,,D]4 [A,,=C]4 | [B,,B,]6 [B,,B,]2 | B,4 E2 D2 | C4 C2 C2 | B,2 B,2 B,2 B,2 | A,4 B,2 C2 | %72
w: ||||||
w: ||||||
w: ||||||
w: ||||||
 D4 C4 | D8 | [A,C]4 z4 | [A,,F,]2 [A,,F,]2 [A,,F,]2 [A,,F,]2 | [A,,G,]3 [A,,G,] [A,,G,]4 | %77
w: |||||
w: |||||
w: |||||
w: |||||
 [^A,,G,]2 [A,,G,]2 [A,,G,]2 [A,,G,]2 | [B,,B,]3 [B,,B,] [B,,B,]4 | G,4 =C2 B,2 | ^A,4 B,4 | %81
w: ||||
w: ||||
w: ||||
w: ||||
 B,4 ^G,4 | [C,A,]2 z2 z4 | z8 | z8 | [E,B,]4 [F,B,]4 | B,4 E2 E2 | [F,C]2 z2 z4 | z8 | %89
w: ||||||||
w: ||||||||
w: ||||||||
w: ||||||||
 [B,D]4 [F,C]4 | [G,B,]3 [G,B,] [D,A,]4 | [A,,A,]8 | [D,A,]2 z2 z2 [D,A,]2 | [A,,A,]6 [A,,A,]2 | %94
w: |||||
w: |||||
w: |||||
w: |||||
 [D,A,]2 z2 [D,A,]2 [D,A,]2 | [G,^A,]8 | [G,B,]4 [G,B,]4 | B,8 | ^A,2!f! z2 z4 | z2!f! C2 D2 C2 | %100
w: ||||||
w: ||||||
w: ||||to,|rat in prin-|
w: |||||si- * cut|
 B,8 | ^A,8 | B,2 D2 E2 E2 | C4 D4 | B,4 ^A,2 B,2 | C2 C2 F,2 ^A,2 | B,2 D2 B,2 E2 | C4 B,4 | C8 | %109
w: |||||||||
w: |||||||||
w: ci-|o|nunc et sem- per|et _|sae- * *|* * * cu-|lo- * * rum.|||
w: e-|rat|in prin- ci- pi-|o et|nunc _ _|et in sae- cu-|lo- * * rum.|||
 D4 z4 |][K:G][M:3/4] z6 | z6 | z6 | z6 | z6 | z6 | z6 | z6 | z6 | z6 | z6 | z6 | z6 | z6 | z6 | %125
w: ||||||||||||||||
w: ||||||||||||||||
w: ||||||||||||||||
w: ||||||||||||||||
 [D,A,]>[D,A,] [D,A,]2 [G,B,][G,B,] | [D,A,]>[D,A,] [D,A,]2 z [D,A,] | G,A, B,2 A,G, | %128
w: |||
w: |||
w: |||
w: |||
 [D,F,]2 z2 F,F, | F,>F, F,2 F,F, | [B,,B,][B,,B,]/[B,,B,]/ [B,,G,]2 [_B,,D]2 | %131
w: |||
w: |||
w: |||
w: |||
 [A,,=C]2 [A,C]2 [D,D]2 | [G,D][G,D]/[G,D]/ [=CE]2 [=C,E]2 | [B,,^D]2 z"^bass"!f! B,, C,B,,/B,,/ | %134
w: |||
w: |||
w: ||* Pec- ca- tor vi-|
w: |||
 !>!E,2 ^D,B,, C,B,, | !>!G,2 F,2 z2 |"^tenor"!f! B,>B, B,2 B,B, | B,2 B,2 B,B, | E2 E2 A,A, | %139
w: |||||
w: |||||
w: de- bit et i- ra-|sce- tur.|Den- ti- bus su- is|fre- met et ta-|ba- scet. De- si-|
w: |||||
 D>G, G,2 G,G, | C2 C2 B,2 | B,2 A,2 z2 | z6 | z6 | z6 | [G,B,]3 [G,B,] [G,B,]2 | %146
w: |||||||
w: |||||||
w: de- ri- um pec- ca-|to- rum per-|i- bit.|||||
w: |||||||
 [G,C]2 [G,C]2 z2 | [G,C]3 [G,C] [G,C]2 | [G,B,]>[G,,B,] [G,,B,]2 z2 | z2 [B,,^D]2 [A,D]2 | %150
w: ||||
w: ||||
w: ||||
w: ||||
 [G,E]3 [F,B,] [E,B,]2 | [_E,G,]6 | [D,A,]2 [D,D]2 [D,D]2 | [D,D]3 [D,D][D,D][D,D] | %154
w: ||||
w: ||||
w: ||||
w: ||||
 [G,G]>[D,D] [D,D]2 [D,D]2 | D4 C2 | [G,B,]2 [G,B,]2 [=F,G,][F,G,] | [E,G,]2 [_E,G,]2 [D,G,]2 | %158
w: ||||
w: ||||
w: ||||
w: ||||
 [^C,A,][C,A,] [=C,D]2 [B,,D]2 | C2 E2 DC | [G,,B,]2 z2 z2 | z2 D2 C2 | [G,B,]2 z2 z2 | z2 D2 C2 | %164
w: ||||||
w: ||||||
w: ||||||
w: ||||||
 [G,B,]2 z2 z2 |][K:D][M:4/4] z!f! [F,A,][G,B,][G,B,] [F,A,]>[E,G,] [D,F,]2 | %166
w: ||
w: ||
w: |Lau- da- te pu- e- ri|
w: ||
 [B,,F,]2 [A,,A,]2 [D,A,]2 z2 | z8 | [G,B,][G,B,] [G,B,]>[G,B,] [F,^A,]2 z"^Solo bass" F, | %169
w: |||
w: |||
w: Do- mi- num,||no- men Do- mi- ni. Sit|
w: |||
 B,2 B,2 B,>B, A,2 | A,2 G,G, G,2 F,E, | F,2 ^G,G,!<(! A,2 B,!<)!B, | %172
w: |||
w: |||
w: no- men Do- mi- ni|be- * ne- di- ctum ex|hoc nunc et us- que in|
w: |||
!>(! C2 B,!>)!B, A, z"^Tutti" z [A,,A,] | [A,,A,]2 A,2 [=F,A,][F,A,][F,A,][F,A,] | %174
w: ||
w: ||
w: sae- * cu- lum. A||
w: ||
 [_B,,_B,]2 [B,,B,]2 [G,,=B,]2 [G,B,][G,B,] | [=C,=C]>[C,C] [C,C]2 [B,,D]3 [B,,D] | %176
w: ||
w: ||
w: ||
w: ||
 =C2 ^D2!mf! E2 z2 | z A,A,A, ^A,2 B,2 | C^A,B,C !>!B,>B, B,D/D/ | DB,CD E>A, A,A, | %180
w: ||||
w: ||||
w: e- * jus.||* * * * Do- mi- nus, su- per|o- mnes gen- tes Do- mi- nus, et|
w: ||* * * * * * * su- per|o- mnes gen- tes Do- mi- nus, *|
 [D,D]2 [D,D]2 [D,F]2 [D,F]2 | =F4- F>F F2 | =F4 E2 D2 | E2 z2 z4 | A,4 G,2 G,2 | E,4 F,2 E,2 | %186
w: ||||||
w: ||||||
w: ||||Glo- ri- a|Pat- ri et|
w: ||||||
 E,2 A,A, A,2 DD | C3 B, ^A,4 | B,2 C2 B,4 | ^A,2 z2!f! z A,CE | D2 ^A,2 B,2 =A,F, | %191
w: |||||
w: |||||
w: Fi- * li- o et Spi-|ri- tu- i,|ri- tu- i|cto, * * *||
w: |||* si- * cut|e- * rat, si- cut|
 G,2 ED C=B,A,G, | F,EDC B, z z =C | B, z z B, B,B,E,^G, | A,2 B,C DDDD | D A,2 G, F,2 DD | %196
w: |||||
w: |||||
w: * si- cut e- rat in prin-|* * * * * et||||
w: e- rat _ in _ _ prin-|ci- * * pi- o et||||
 D4 D,2 z2 |][M:4/4] [D,D]2 | [D,D]4 [D,D]4 | [B,,D]3 [B,D] [B,D]4 | E2 D2 D2 C2 | %201
w: |||||
w: |||||
w: |||||
w: |||||
 [D,D]2 z2 z2 [D,A,]2 | [D,A,]4 [D,A,]4 | [B,,B,]4 [B,,B,]4 | ^A,2 B,2 =A,2 ^G,2 | A,2 z2 z4 | z8 | %207
w: ||||||
w: ||||||
w: ||||||
w: ||||||
 z8 | z8 | z8 |"^Solo bass" G,3 G, G,4 | !>!=F,6 E,2 | D,3 D, D,2 [A,,A,]2 | %213
w: ||||||
w: ||||||
w: |||quo- ni- am|con- fir-|ma- ta est *|
w: ||||||
 [G,,_B,]2 [G,,B,]2 [A,,=C]2 [A,,=F,][A,,F,] | [_B,,=F,]4 [B,,F,]2 [B,,F,]2 | %215
w: ||
w: ||
w: ||
w: ||
 [_B,,_A,]2 [B,,A,]2 [=B,,A,]2 [B,,A,][B,,A,] | [=C,G,]4 [C,G,]2 [C,=C]2 | %217
w: ||
w: ||
w: ||
w: ||
 [=F,=C]>[F,C] [F,C]2 [E,A,]2 [E,A,]2 | [D,A,]4 [=C,A,]2 [C,A,]2 | [B,,A,]2 [B,,A,]2 !>![E,^G,]4 | %220
w: |||
w: |||
w: |||
w: |||
 [A,,A,]2 z2 z4 | z8 | z8 | z8 | z8 | z8 | z8 | [D,A,]4 [D,A,]2 [D,A,]2 | !>![E,A,]4 [D,A,]2 z2 | %229
w: |||||||||
w: |||||||||
w: |||||||||
w: |||||||||
 [D,A,]4 [D,A,]2 [D,A,]2 | [E,A,]3 [E,A,] [D,A,]2 z2 | z4 B,2 B,2 | [F,A,]3 [F,A,] [G,B,]4 | %233
w: ||||
w: ||||
w: ||||
w: ||||
 [D,D]4 [E,B,]4 | [F,^A,]2 z2 z2 F,F, | F,2 F,2 F,2 F,2 | G,3 G, G,2 G,2 | G,6 ^G,2 | %238
w: |||||
w: |||||
w: |||||
w: |||||
 A,2 A,2 A,2 A,2 | D2 A,A, A,2 D2 | D4 E4- | E2 D2 D2 C2 | [D,D]2 z2 z4 | z4 [A,,G,]4 | %244
w: ||||||
w: ||||||
w: sem- per et in|||* rum. A- *|men,|a-|
w: ||||||
 [D,F,]2 z2 z4 |][M:6/8] z6 | z6 | z6 | z6 | z z D, F,F,G, | A,A,A, A,2 A, | [B,D]3 [A,C]2 [A,C] | %252
w: ||||||||
w: ||||||||
w: men.||||||||
w: ||||||||
 [D,D] z z z3 | z6 | z6 | z6 | z6 | z6 | z6 | z6 | z6 | z6 | z6 | z6 | z6 | z6 | z6 | z6 | z6 | %269
w: |||||||||||||||||
w: |||||||||||||||||
w: |||||||||||||||||
w: |||||||||||||||||
 z6 | z6 | z6 | z6 | z6 | z3 z A,A, | A,2 A, A,A,A, | [_B,D]3- [B,D]2 [B,D] | [A,E]2 z z2 A, | %278
w: |||||||||
w: |||||||||
w: |||||||||
w: |||||||||
 A,3 A,3 | A,3 A,2 A, | _B,3 [=F,A,]3 | G,3 [D,=F,]3 | A,3 ^G,3 | [A,,A,]2 z z3 | z6 | z6 | z6 | %287
w: |||||||||
w: |||||||||
w: |||||||||
w: |||||||||
 z6 | z6 | z6 | z6 | z6 ||[K:C][M:4/4] [A,C]4 [D,D]2 [D,D]2 | [A,C]3 [A,,C] [A,,C]2 [A,E]2 | %294
w: |||||||
w: |||||||
w: |||||Fe- cit po-|ten- ti- am in|
w: |||||||
 [F,D]4 [F,^D]2 [F,D]2 | [E,E]2 [E,E]2 z4 | [E,B,]4 [F,B,]2 [F,B,]2 | B,3 B, B,2 B,2 | E4 E2 E2 | %299
w: |||||
w: |||||
w: brac- chi- o|su- o,|fe- cit po-|ten- ti- am *||
w: |||* * * in|brac- chi- o|
 [A,E]2 [A,,C]2 z4 | z8 | z8 | z8 | z8 | z4 z2 [F,A,]2 | [G,_B,]3 [G,,G,] [G,,G,]2 [G,,G,]2 | %306
w: |||||||
w: |||||||
w: su- o,|||||||
w: |||||||
 [A,,^F,]2 [A,,F,]2 z2 [A,,F,]2 | [_B,,G,]3 [B,,G,] [B,,G,]2 [B,,G,]2 | %308
w: ||
w: ||
w: ||
w: ||
 [_B,,^G,]2 [B,,G,]2 z [B,,G,][B,,G,][B,,G,] | [A,,A,]6 [A,,A,]2 | [^G,,_B,]4 [G,,F,]4 | %311
w: |||
w: |||
w: |||
w: |||
 [A,,E,]2 [A,,A,]2 [A,,A,]2 [A,,A,]2 | [A,,A,]2 [A,,A,][A,,A,] [A,,A,]2 [A,,A,]2 | %313
w: ||
w: ||
w: ||
w: ||
 [A,,A,]2 [A,,A,][A,^C] [A,C]2 [A,C]2 | [A,D]2 [A,D]2 [A,D]2 [A,D][A,D] | [A,^C]2 [A,C]2 z4 | z8 || %317
w: ||||
w: ||||
w: ||||
w: ||||
[K:D] [D,F,]4 [G,B,]4 | [D,A,]4 [F,A,]2 [D,A,]2 | C4 D2 A,2 | A,2 z2 z2 A,2 | C6 B,2 | %322
w: |||||
w: |||||
w: Glo- *|* ri- a|Pa- * *|tri, et|Fi- li-|
w: |||||
 [F,A,]2 [F,A,]4 [F,^A,]2 | B,8 | C3 C C4 | F4 E2 D2 | C4!f! z4 | F,2 E,D, C,2 A,,2 | %328
w: ||||||
w: ||||||
w: o et Spi-|ri-|* tu- i|Sanc- * *|to,|e- rat _ in prin-|
w: ||||||
 D,2 F,2 A,2 G,G, | z4 C2 E2 | [B,D]2 [A,C][G,B,] [F,A,]2 [E,G,]2 | [D,A,]2 z2 z2 [=CD]2 | %332
w: ||||
w: ||||
w: ci- pi- o, si- cut|in prin-|ci- pi- * o et|nunc *|
w: ||||
 [B,D]2 [B,D]2 z2 [_B,D][B,D] | [A,C]2 [A,D][A,D] [A,G]2 [A,F]2 | %334
w: ||
w: ||
w: ||
w: ||
 [A,,E]2 [B,,D]2 [=C,^D]2 [^C,E]2 | [D,A,]2 [F,=C]2 [G,B,]2 [E,B,]2 | A,4 [A,,G,]4 | %337
w: |||
w: |||
w: |||
w: |||
 [D,F,]2 z2 [A,C]4 | D2 z2 [A,E]4 | [D,D]2 z2 z4 |] %340
w: |||
w: |||
w: |||
w: |||
V:3
 x8 | x8 | x8 | x8 | x8 | x8 | x8 | x8 | x8 | x8 | x8 | x8 | x8 | x8 | x8 | x8 | x8 | x8 | x8 | %19
w: |||||||||||||||||||
 x8 | x8 | C3!<(! C D2 E2 | F4!<)! G2 F2 | x8 | x8 | A4 A2 z2 | z4 C2 E2 | x8 | x8 | x8 | x8 | x8 | %32
w: ||Do- * * *|||||||||||
 x8 | x8 | x8 | x8 | x8 | x8 | (F2 E4 D2) | x8 | x8 | ^G2 A2 F2 F2 | F2 F2 D2 D2 | D2 D2 E2 E2 | %44
w: |||||||||* * in prin-|ci- pi- o et|nunc et sem- per|
 x8 | x8 | x8 | x8 | x8 |][M:4/4] x8 | x8 | x8 | x8 | x8 | x8 | x8 | x8 | x8 | x8 | x8 | x8 | x8 | %62
w: ||||||||||||||||||
 x8 | x8 | x8 | x8 | x8 | x8 | x8 | E4 A2 A2 | x8 | A6 A2 | (A8 | F4 ^G4) | x8 | x8 | x8 | x8 | %78
w: ||||||||||||||||
 x8 | E8- | E4 ^D4 | x8 | x8 | x8 | x8 | x8 | x8 | x8 | x8 | (F8 | D3) D D4 | (D4 C4) | x8 | %93
w: |||||||||||||||
 (D4 C2) C2 | x8 | x8 | x8 | D8 | x8 | x8 | z2 (F2 G2) C2 | E2 E2 F2 E2 | (D4 G2) G2 | F4 F4 | x8 | %105
w: |||||||si- * cut|||||
 F2 F2 F2 E2 | (D2 F2 G2) G2 | (F4 E4 | F8) | F4 x4 |][K:G][M:3/4] x6 | x6 | x6 | x6 | x6 | x6 | %116
w: |||||||||||
 x6 | x6 | x6 | x6 | x6 | x6 | x6 | x6 | x6 | x6 | x6 | x6 | x6 | x6 | x6 | x6 | x6 | x6 | x6 | %135
w: |||||||||||||||||||
 x6 | x6 | x6 | x6 | x6 | x6 | x6 | x6 | x6 | x6 | x6 | x6 | [_EF]3 [EF] [EF]2 | %148
w: ||||||||||||glo- ri- a|
 [DG]>[DG] [DG]2 x2 | x6 | x6 | ^C6 | x6 | x6 | G>D D2 D2 | x6 | x6 | x6 | x6 | (E2 AG F2) | x6 | %161
w: Fi- li- o|||||||||||||
 x2 F4 | x6 | x2 F4 | x6 |][K:D][M:4/4] x8 | x8 | x8 | x8 | x8 | x8 | x8 | x8 | x8 | x8 | x8 | %176
w: |||||||||||||||
 (E2 F2) ^G2 x2 | x8 | x8 | x8 | x8 | x8 | A8 | x8 | D4 D2 D2 | C4 D2 D2 | x8 | x8 | %188
w: ||||||||||||
 (D2 C2!>(! D2!>)! C2) | x8 | z4 z (DE)A | G2 E2 (ECD)E | F3 F F x x F | G x2 ^D EEEE | %194
w: ||si- * cut|e- rat in _ _ _|_ _ _||
 (EC)DE FA^G=G | (F2 EC) D2 [Dd][Dd] | x8 |][M:4/4] x2 | x8 | x8 | x8 | x8 | x8 | x8 | x8 | x8 | %206
w: ||||||||||||
 =F3 F F4 | =F6 _E2 | D3 D D4 | ^F6 A2 | G3 D D4 | !>!^C6 C2 | x8 | x8 | _B,4 B,2 B,2 | x8 | x8 | %217
w: quo- ni- am|con- fir-|ma- ta est,|||||||||
 x8 | x8 | x8 | x8 | x8 | x8 | x8 | x8 | x8 | x8 | x8 | x8 | x8 | x8 | z4 F2 F2 | x8 | (F4 E2 D2) | %234
w: |||||||||||||||||
 x8 | x8 | x8 | x8 | x8 | x8 | (G4 B4 | A2) A2 G4 | x8 | x8 | x8 |][M:6/8] x6 | x6 | x6 | x6 | x6 | %250
w: ||||||||||||||||
 x6 | (AGF GA)G | x6 | x6 | x6 | x6 | x6 | x6 | x6 | x6 | x6 | x6 | x6 | x6 | x6 | x6 | x6 | x6 | %268
w: ||||||||||||||||||
 x6 | x6 | x6 | x6 | x6 | x6 | x6 | x6 | x6 | x6 | x6 | x6 | x6 | x6 | (=C3 B,3) | x6 | x6 | x6 | %286
w: ||||||||||||||||||
 x6 | x6 | x6 | x6 | x6 | x6 ||[K:C][M:4/4] x8 | x8 | x8 | x8 | x8 | ^G3 G G2 z2 | z2 ^G2 B>B G2 | %299
w: ||||||||||||in brac- chi- o|
 x8 | x8 | x8 | x8 | x8 | x8 | x8 | x8 | x8 | x8 | x8 | x8 | x8 | x8 | x8 | x8 | x8 | x8 || %317
w: ||||||||||||||||||
[K:D] x8 | x8 | x8 | x8 | F4 ^E4 | x8 | (D4 E4-) | E3 E F4 | (F4 ^G4) | x8 | z4 E2 G2 | %328
w: ||||Fi- *||||||si- cut|
 F2 (ED) E2 C2 | (D4 C2) C2 | D2 E2 F2 G2 | x8 | x8 | x8 | x8 | D6 E2 | x8 | x8 | x8 | x8 |] %340
w: e- rat _ in prin-|ci- * pi-|o et nunc, et||||||||||
V:4
 x8 | x8 | x8 | x8 | x8 | x8 | x8 | x8 | x8 | x8 | x8 | x8 | x8 | x8 | x8 | x8 | x8 | x8 | x8 | %19
w: |||||||||||||||||||
w: |||||||||||||||||||
w: |||||||||||||||||||
 x8 | x8 | z8 | z8 | z2 G,2 G,2 G,G, | x8 | x8 | x8 | x8 | x8 | x8 | x8 | x8 | x8 | x8 | x8 | x8 | %36
w: |||||||||||||||||
w: |||||||||||||||||
w: |||||||||||||||||
 x8 | x8 | B,,2 C,2 D,2 F,2 | A,4 A,,2 B,,2 | ^B,,2 C,2 D,2 E,2 | ^E,2 F,2 B,2 B,2 | %42
w: ||||||
w: ||||||
w: ||||e- rat, si- cut|e- rat in *|
 A,2 A,2 G,2 G,2 | x8 | x8 | x8 | A,,8 | x8 | x8 |][M:4/4] x8 | x8 | x8 | x8 | x8 | x8 | x8 | x8 | %57
w: |||||||||||||||
w: |||||||||||||||
w: |||||||||||||||
 x8 | x8 | x8 | x8 | x8 | x8 | x8 | x8 | x8 | x8 | x8 | E,4 z4 | z8 | z8 | z8 | D,4 A,4 | B,4 E,4 | %74
w: |||||||||||||||||
w: |||||||||||||||||
w: |||||||||||||||||
 x8 | x8 | x8 | x8 | x8 | =C,8 | ^C,4 B,,4 | E,4 D,4 | x8 | x8 | x8 | x8 | G,4 C,4 | x8 | x8 | x8 | %90
w: ||||||||||||||||
w: ||||||||||||||||
w: ||||||||||||||||
 x8 | x8 | x8 | x8 | x8 | x8 | x8 | F,4 ^E,4 | F,2 F,2 G,2 C,2 | E,2 E,2 F,2 E,2 | D,4 E,2 G,2 | %101
w: |||||||||||
w: |||||||||||
w: ||||||||* si- * cut|||
 F,6 F,2 | B,2 G,F, E,2 C,2 | F,2 E,2 D,2 B,,2 | E,2 D,2 C,2 B,,2 | ^A,,2 E,2 D,2 C,2 | %106
w: |||||
w: |||||
w: |||||
 B,,2 B,2 G,2 E,2 | F,4 G,4 | F,8 | B,,4 x4 |][K:G][M:3/4] x6 | x6 | x6 | x6 | x6 | x6 | x6 | x6 | %118
w: ||||||||||||
w: ||||||||||||
w: ||||||||||||
 x6 | x6 | x6 | x6 | x6 | x6 | x6 | x6 | x6 | B,,A,, G,,2 A,,2 | x6 | x6 | x6 | x6 | x6 | x6 | x6 | %135
w: |||||||||||||||||
w: |||||||||||||||||
w: |||||||||||||||||
 x6 | x6 | x6 | x6 | x6 | x6 | x6 | x6 | x6 | x6 | x6 | x6 | x6 | x6 | x6 | x6 | x6 | x6 | x6 | %154
w: |||||||||||||||||||
w: |||||||||||||||||||
w: |||||||||||||||||||
 x6 | A,2 G,2 F,2 | x6 | x6 | x6 | C,B,, A,,2 D,2 | x6 | x2 D,4 | x6 | x2 D,4 | x6 |] %165
w: |||||||||||
w: |||||||||||
w: |||||||||||
[K:D][M:4/4] x8 | x8 | x8 | x8 | x8 | x8 | x8 | x8 | x8 | x8 | x8 | A,,2 A,2 E,E,E,D, | %177
w: ||||||||||||
w: ||||||||||||
w: ||||||||||||
 ^C,2 C,2 C,2 B,,2 | ^A,,F,,^G,,A,, !>!B,,>B,, B,,B,,/B,,/ | B,,G,,A,,B,, !>!C,>C, C,C, | x8 | %181
w: ||||
w: ||||
w: su- per o- mnes|gen- * tes _ _ _ _ _ _|_ _ _ _ _ _ _ _||
 B,2 _B,2 A,>A, ^G,2 | A,8 | A,,2 x6 | D,4 B,,2 G,,2 | A,,4 D,2 G,,2 | A,,3 A,, D,2 B,,B,, | %187
w: ||||||
w: ||||||
w: ||||||
 C,3 C, F,2 F,F, | B,2 =A,A, ^G,2 C,2 | F,2 z2 z4 | z8 | z E,G,_B, A,G,F,E, | %192
w: |||||
w: |||||
w: |||||
 D,C,B,,^A,, B,, x2 D, | G, x2 B,, E,D,C,B,, | A,,G,F,E, D,C,B,,_B,, | A,,2 A,2 D,2 DD | x8 |] %197
w: |||||
w: |||||
w: ci- pi- o et nunc, *|||||
[M:4/4] x2 | x8 | x8 | A,2 A,2 A,4 | x8 | x8 | x8 | F,2 B,2 E,3 E, | x8 | x8 | x8 | x8 | x8 | x8 | %211
w: ||||||||||||||
w: ||||||||||||||
w: ||||||||||||||
 x8 | x8 | x8 | x8 | x8 | x8 | x8 | x8 | x8 | x8 | x8 | x8 | x8 | x8 | x8 | x8 | x8 | x8 | x8 | %230
w: |||||||||||||||||||
w: |||||||||||||||||||
w: |||||||||||||||||||
 x8 | x8 | x8 | x8 | x8 | x8 | x8 | x8 | x8 | D,2 E,2 F,2 D,2 | G,4 E,4 | C,2 D,2 A,2 A,,2 | x8 | %243
w: |||||||||||||
w: |||||||||||||
w: |||||||||sae- cu- la sae-|cu- lo-|||
 x8 | x8 |][M:6/8] x6 | x6 | x6 | x6 | x6 | x6 | x6 | x6 | x6 | x6 | x6 | x6 | x6 | x6 | x6 | x6 | %261
w: ||||||||||||||||||
w: ||||||||||||||||||
w: ||||||||||||||||||
 x6 | x6 | x6 | x6 | x6 | x6 | x6 | x6 | x6 | x6 | x6 | x6 | x6 | x6 | x6 | x6 | x6 | x6 | x6 | %280
w: |||||||||||||||||||
w: |||||||||||||||||||
w: |||||||||||||||||||
 x6 | x6 | E,6 | x6 | x6 | x6 | x6 | x6 | x6 | x6 | x6 | x6 ||[K:C][M:4/4] x8 | x8 | x8 | x8 | x8 | %297
w: |||||||||||||||||
w: |||||||||||||||||
w: |||||||||||||||||
 E,3 E, E,2 z2 | z2 E,2 ^G,>G, E,2 | x8 | x8 | x8 | x8 | x8 | x8 | x8 | x8 | x8 | x8 | x8 | x8 | %311
w: ||||||||||||||
w: ||||||||||||||
w: |in brac- chi- o|||||||||||||
 x8 | x8 | x8 | x8 | x8 | x8 ||[K:D] x8 | x8 | A,,4 B,,2 C,2 | D,2 D,2 F,2 D,2 | C,6 C,2 | x8 | %323
w: ||||||||||||
w: ||||||||||||
w: ||||||||||||
 G,4 E,4 | A,3 A, F,4 | B,,4 E,4 | A,,4 E,2 G,2 | x8 | x8 | F,2 G,2 A,2 ^A,2 | x8 | x8 | x8 | x8 | %334
w: |||||||||||
w: |||||||||||
w: |||* si- cut|||e- rat * *|||||
 x8 | x8 | x8 | x8 | x8 | x8 |] %340
w: ||||||
w: ||||||
w: ||||||
V:5
!f! D4 F4 | A3 A A4 | z A AA (BA)(cA) | z dAF D4 | B,4 D4 | F4 F4 | z F FF (^GF)([E^A]F) | %7
 z BFD B,4 |!p! [GB]4 [GB]2 [GB]2 | [GB]3 c/B/ [FA]4 | [EG]4 [EG]2 [EG]2 | [EG]3 A/G/ [DF]4 | %12
 (EB)BB (FB)BB | (GB)BB (EBGE) |!f! (FC)FF [D^G]F[E^A]F | BB,DF Bdfb | [dd']4 [Bb]4 |!p! [D-^E]8 | %18
 (FB,FD) C(CFE) | (^DFB)D EBFB | (GBe)E eGd^G | c(ceA) dAeA |!<(! (fd)af gda!<)!d |!f! _bgd_B G4 | %24
!ff! d8- | [=FAd](FAd) [EAc]2!p! (e2 | A6) G2 | [D=F]2 ([DF]2 [FA]2 [DF]2) | =F2 E2!f! A2 Bc | %29
 [=FAd]2 [FAd][FAd] [FB=f]2 [FBd]2 | ([Ac]EAc)!p! (eAde | cdBc ABGA) | [DF]2 [DF]2 [CE]2 [DF]2 | %33
 [CG]4 [DF]4 | [FA]4 [^E^G]2 [FA]2 | [^EB]4 [FA]4 | d4 c4 | B4 A4 | G4 F4 | [CE]A,A,A,!f! CA,DA, | %40
 ^DA,EA, F=DGD | ^GDAD dFeF | fFAF BDcD | dDFD GE^GE | AE[^GB]E [Ac](EBA) | AdDd EdGd | %46
 (FAdf) a2 [EAc]2 | [FAd]2 z2 [GAca]2 z2 | [DFAd]2 z2 z4 |][M:4/4]!p! F8- | F2 (cd) e2 f2 | %51
 d2 B2 F2 [GB]2 | (B3 ^A) A2 F2 | G4 F4 | E4 D2 C2 | (D2 EF) E2 D2 | [B,D]4 [^A,C]2 [A,C]2 | %57
 z4 G4- | (G2 FE) F2 G2 | [FA]6 [FA]2- | ([FA]2 [EG][^DF]) [EG]2 [GB]2 | ([FA]2 d2 D2 G2) | %62
 (E4 [CA]4) | [DFA]4!ff! F2 F2 | [CEF]4 [CEF]4 | [B,DF]3 [B,DF] [B,DF]4 | z2 [DGB]2 z2 [=CFA]2 | %67
 z2 [B,EG]2 z2 [B,^DF]2 | [B,EG]4 [EGB]2 [DFB]2 | (BCEB) (AEBc) | d4- (dBed) | %71
!<(! (d2 c2 d2) [Ge]2!<)! |!f! [Ff]4 [Ge]4 | [Fd]4 [^Ge]4 | [EA]4!p! (A,CEA) | [=C^D]8 | [^CE]8- | %77
 [CE-]8 |!<(! G2 (G2 B2 e2)!<)! |!f! [E-G]8 | F4 B2 A2 | G4 B4 | [EA]2!p! C2 D2 E2 | %83
 F2 G2!<(! A2 [E^A]2 | ([DB]3!<)! c d2) z2 |!p! (G2 B2) (F2 B2) |!<(! (EGBe) (geb)!<)!b | %87
 [c^a]2!f! .F2 .G2 .E2 | (C2 DE F2) F2 | B4 A4 | G4 F4 | E8 | [DF]2!p! [DF]2 [DF]2 [DF]2 | %93
!>(! E6!>)! E2 |!p! [DF]2 [DF]2 [DF]2 [DF]2 | [CE]8 | ^E8 | F4 ^G4 | [CF]2!f! z2 z4 | z8 | z8 | %101
 z2 (c2 d2) c2 | B2 (B2 c2) B2 | (=ACFA) B2 A2 | (GEGB) (efg)G | (FC^G^A) BFcF | (d2 cB) (eBeg) | %107
 (^A^a)aa (bB)BB | (Bb)bb (^A^a)[ca]a | [db]4 z4 |][K:G][M:3/4]!p! (B,DG)FGA | B3 ABc | %112
 (d>B) G2 G2 | (cBAB) AG | ([DF]Ad)DDD | [DB]2 ([DB]3 [^DA]) | (A2 G2) G2 | (F4 E2) | %118
 F ([^A,^C][CE][EG][DF][CE]) | (DEFEF^G) | (AE=GBAG) | (FGAB^cd) | (^cB^AcBG) | E4 F2 | %124
 D3!f! .D.F.A | [Fd]2 z2 [Gd]2 | [Fd]3 AFD |!>(! GF E4!>)! |!p! [DF]FFFFF | FFFFFF | FFGGGG- | %131
!<(! [=C=c][Cc][Cc][Cc]!<)! [Dc][Dc] | (B4 A2) |!f! [^DFB]2 z .B,.C.B, | %134
 (!>![CE]2 [B,^D]) .B,.C.B, | (!>![EG]2 F)!p!B B2- | [GB]6 | (Bd/f/) bBBB | [Ee]4 [DFA]2 | %139
 [Ad]2 G2 G2 | c4 [GB]2- | ([GB]2 [FA]) (GF[^CE]) |!<(! (!>![^CE]2 D) ([GB][FA]!<)![EG]) | %143
 ([EG]2 [DF]) (edc) |!>(! (B2 A)(c!>)!BA) |!p! [DG]6 | [EG]3 (G,CE) | [C_EFA]6 | [DGB]3 (B,DG) | %149
 B2!f! [^DFB]2 [DFB]2 | [EB]3 [^DA] [EG]2 |!p! G2 A2 G2 | [DF]2!f! D2 D2 | c2 B2 A2 | (GB)D(DGB) | %155
 [Fc]2 [GB]2 [DA]2 | B2 G2 d2 | [^C^c]2 [=C=c]2 [DB]2 | e2 A2 d2 | G2 c2 A2 | G2 (FGB,C) | %161
 D2!ff! ([DB]2 [CA]2) | [B,DG]2 (FGB,C) | D2 ([DF]4 | [G,B,DG]2) z2 z2 |] %165
[K:D][M:4/4] z!f! .[FA].[GB].[GB] ([FA]>[EG]) [DF]2 | .D2 .[CE]2 .[DF] .[Fd].[Fd].[Fd] | %167
 .[Fd] .[fa].[gb].[gb] ([fa]>[eg]) [df]2 | .D2 .[CE]2 .[CF] .[^Af].[Af].[Af] | [Bd]2 B4 A2- | %170
 A2 G2- G3/2A/4G/4 FE | (F/A,/D/F/) ([F^G]/C/^E/G/)!<(! ([FA]/C/=E/A/) (B/!<)!D/G/B/) | %172
 (c/E/A/c/) (Be) A!p![CE][CE][CE] | E4 =F4 | [D=F-]4 [FG]4 | %175
!<(! [=CEG] [CEG]2 [CE-G] [DE^G] [DEG]2!<)! [DEG] |!f! A(A=c>B) (B/e/!>(!B/^G/) E!>)!E | %177
!<(! E(A/c/)!<)! ef!mf! g/(E/G/E/) z/ (E/G/E/) | %178
 F/(f/c/^A/) F[EF] ([DF]/B,/[DF]/[CE]/) (D/B,/D/F/) | G/(g/d/B/) GG (G/E/G/F/) E!p!A | %180
 (A/F/)(F/!<(!A/) (A/d/)(d/f/) (f/B/)(B/d/) (d/f/)(f/!<)!b/) | %181
!ff! (d'/d/)(d/d'/) (d'/d/)(d/d'/) [dd'][dd'][dd'][dd'] | (d'/a/).=f/.d/ (a/f/).d/.A/ a4 | %183
 [Ac]([Be]!>(![Gc][FB]) (AGF!>)!E) |!p! (D2 F2 G2 B2) | A3 G F2 B2 | A3 G F2 B2 | A3 G F4- | %188
 (F6 ^E2) | F!<(! z/ F/ ^A/F/A/c/!<)! f!f! z z2 | z (Bc).e d3 =c | B2 G3 EFG | A^ABc d (Fd)=A | %193
 [GB] (DB)f g/E/B/E/ e/E/d/E/ | c/E/B/C/ A/D/G/E/ F/d/A/d/ ^G/d/=G/d/ | %195
 (F/A/d/f/) (a/A/c/e/) [Ad]2"^rit."!ff! dd | z2 [G_Bg]2 [FAdf]2 z2 |][M:4/4]!f! [DFAd]2 | %198
 [DFAd]4 [DFAd]4 | [DGd]8 | [Gc]2 [Fd]2 [Ge]4 | [Fd]2 [Dd]>[Dd] [Dd]2 [Fd]2 | [Fd]4 [Fd]4 | %203
 [Fd]4 [Fd]4 | [Fc]2 [Fd]2 [DB]4 | A2!p! (A4 G2 | [D=F-]8) | [_EF-]8 | F8 | ^F8 | G4 _B4 | A6 G2 | %212
 =F8 | _E8- | E3 D D2 D2 |!<(! =F8-!<)! | F4 E2 [D=F][EG] |!f! A6 G2 | =F4!p! E4 | D4- [DE-]4 | %220
 [CE]2!f! (A2 B2 c2) | ([=Fd]A)de [^GB=f]4 | [ce]2 ([Ge]2 [=Fd]2 [Ec]2) | (da)=f!>(!d!>)! ^G4 | %224
!p! !/![A,A]8 |!<(! !/![A,A]8!<)! |!>(! !/![A,A]2 !/!A2 !/![^GA]2!>)! !/![=GA]2 | %227
!p! [FA]2 [DF]2 [DF]2 [DF]2 | G4 F(A,DE) | [DF]4 [DF]2 [DF]2 | A3 G F!<(!(DF!<)!A) |!f! d6 d2 | %232
 c3 c B4 | A4 G4 |!f! [CF]2 z2 z2 F2 | F8 | G8- | G6 ^G2 | A(Ace) (abag) | (fgfe) (dedc) | %240
 B(GBd) g2 g2- | g2 f2 Te4 | d2!ff! z2 (([^Gd-^g]4 | [Ada]2)) z2 (([EGc]4 | [DFd]2)) z2 z4 |] %245
[M:6/8]!p! DDD DDD | (DCB, CDE) | F3!<(! (FG!<)!A) |!>(! ([FA]GF)!>)! (EFE) | (D3 F2 G) | %250
!<(! A6!<)! |!f! d3 e3 | [Fd][Fd][Fd] [Fd]!p! (EF) | [^A,CF-]6 | F6- | F3 G3 | [DF]3 ([df]2 [ce]) | %257
 ([ce]3 [Bd]2) z | [B,E-]6 | E6 | [Cc]3 [EB]3 | (Aaf ^dBd) | [^Ge](EF GAB) | (cBA) (^GBd) | %264
 ([df][ce][Bd]) [Ac]!p!([Ac][^GB]) | (A3 =GAG) | [EF-]6 | F3 G3- | G(G^G) A3- | (AFA) d3 | %270
 cBA A3- | A3 ^G3 | A(Ac)!<)!!<(! [=Ge-]3 |!>(! (edc)!>)! (BcB) | %274
!f! [CEA](C/E/)(E/A/) (A/c/)(c/e/)(e/a/) | [Ad=f]3 [=FAd]3 |!ff! !/![D^Gd]6 | %277
!f! [EAc](C/E/)(E/A/) (A/c/)(c/e/)(e/a/) | [Aeg]3 [Ace]3 | %279
!f! [Ad=f](D/=F/)(F/A/) (A/d/)(d/f/)(f/a/) |!ff! [=fd']!>(![=Fd][Fd] z [F=c][Fc] | %281
 z [D_B][DB] z [DA]!>)![DA] |!p! [=CE][CE][CE] [B,E][B,E][B,E] | (A,CE)!mf! AAA | _B2 B (d>=cB) | %285
 _B2 A A3- | d3 =f>ed | =c3 B2 B | A3- ABA |!p! [E^G]3 [Ge]2 [Ge] | (=c3 d3) | e6 || %292
[K:C][M:4/4]!f! A4 A2 A2 | c3 A A2 c2 | B4 B2 B2 | B2 E2 z!f! E^GB | d4 d2 d2 | d3 B B2 B2 | %298
 e4 d2 e2 | c2 A2 z!p! (CDE) | F6 f2 | _b3 _B B2 B2 | A2 A2 z2 d2 | g3 G G2 G2 | G2 F2 z2!pp! D2 | %305
 _E8- | E8- | E8- | (E2 D2-) D!f! dfd | [fd'] [Fd]2 [Fd]2 [Fd]2 [Fd]- | %310
!>(! [Fd] [Fd]2 [Fd] [Fd] [Fd]2!>)! [Fd] |!p! [E^c](A_BA) (^GA[cf]e) | (edc_B) (A^G)(dG) | %313
 A(a_ba) (^gae=g) | (gfed) (^cdfd) | (age^c) (AGED) | (^CA,^G,A,) (_B,=B,=C^C) ||[K:D] D8- | %318
 F4 D2 F2 | [FA]6 [EG]2 | [DF]2 z2 z2 [DF]2 | A6 ^G2 | F8 | D4 [E-G]4 | E4 [FA]4 | d4 c2 B2 | %326
 A!f! A,CE AA,FE | DA,CD EA,EG | FA,ED EceA | dAcB Aceg | ffge adbc' | [fd'] (DFA) dAdf | %332
 g(DGB) dGdg | (g2 f2 e2 d2) | (c2 B2 A2 G2) | [DF]2 ([=ca]2 [Bd]2 [eg]2) | %336
 ([df]A).[Ad].[df] [cea]2 ([ce]>f) | [Ad]2 z2 [GAe]2 [GAe]2 | [FAf]2 z2 [EGAc]4 | [DFAd]2 z2 z4 |] %340
V:6
 D,4 F,4 | A,3 A, A,4 | z2 A,2 G,2 E,2 | D,4 D,4 | B,,4 D,4 | F,4 F,4 | A,4 F,2 F,2 | B,4 B,4 | %8
 z2 G,2 E2 D2 | C4 D4 | z2 E,2 C2 B,2 | ^A,4 B,4 | B,8- | B,8 | ^A,4 B,2 C2 | D6 B,2 | %16
 [D,D]4 [B,,B,]4 | B,8- | B,4 ^A,4 | B,8- | B,4 C,2 B,,2 | [A,C]4 [B,D]2 [CG]2 | %22
 D2 _E2 [DG]2 [=CFA]2 | [_B,DG]4 [B,DG]4 | [_B,,=F,]8 | A,6 z2 | z2 A,,2 A,,2 A,,2 | %27
 z A,=F,E, D,4 | A,4 A,4 | z A,=F,E, D,2 ^G,2 | A,,4 A,,4- | A,,2 A,,2 B,,2 C,2 | %32
 D,2 D,2 A,,2 D,2 | E,4 D,4 | C4 C4 | C8 | B,4 C4 | D4 D4 | D2 E2 A,4 | A,4 A,,2 B,,2 | %40
 ^B,,2 C,2 D,2 E,2 | ^E,2 F,2 [B,D]4 | [A,C]4 [G,B,]4 | A,4 B,4 | A,2 D2 E2 C2 | A,2 A,2 B,2 G,2 | %46
 A,4 [G,A,C]4 | [F,A,D]2 z2 A,2 z2 | [D,A,]2 z2 z4 |][M:4/4] [B,D]4 [B,D]2 [B,D]2 | %50
 [B,C]4 [^A,C]4 | [D-F]4 D4 | C6 ^A,2 | B,2 C2 ^A,2 B,2 | ^G,2 ^A,2 B,2 C2 | B,,2 C,D, E,2 ^E,2 | %56
 F,2 ^E,2 F,2 F,2 | B,2 A,2 G,2 [E,G,]2 | [D,A,]6 z2 | z2 B,,C, ^D,2 B,,2 | [E,B,]6 [E,C]2 | %61
 D4 B,4 | A,4 A,,4 | D,4 F,2 F,2 | [^A,,F,]4 [A,,F,]4 | [B,,F,]3 [B,,F,] [B,,F,]4 | G,,4 A,,4 | %67
 B,,4 B,,4 | E,,4 z4 | [A,C]8 | [B,D]2 [B,D]2 [B,D]2 [B,D]2 | [A,E]4 B,2 C2 | D4 [A,C]4 | [B,D]8 | %74
 [A,C]4 z4 | [A,,-F,]8 | [A,,G,-]8 | [^A,,G,]8 | [B,,B,]8 | G,4 =C2 B,2 | ^A,4 B,4- | B,4 ^G,4 | %82
 [C,A,]2 A,,2 B,,2 C,2 | D,2 E,2 F,2 [F,C]2 | [G,B,]3 A, B,2 z2 | B,8- | [B,E]2 [B,E]4 [EG]2 | %87
 [F,CF]2 .F,2 .G,2 .E,2 | C,2 D,E, F,2 F,2 | D4 C4 | B,4 A,4 | A,8- | %92
 [D,A,]2 [D,A,]2 [D,A,]2 [D,A,]2 | A,6 A,2 | [D,A,]2 [D,A,]2 [D,A,]2 [D,A,]2 | [G,-^A,]8 | %96
 [G,B,-]8 | B,8 | [F,^A,]2 F,2 G,2 C,2 | z2 C2 D2 C2 | B,8 | ^A,8 | B,2 G,F, E,2 C,2 | %103
 [CF]4 [DF]4 | [B,E-]4 [^A,E]2 B,2 | [C-E]2 [CF-]2 [B,F]2 [^A,E]2 | [B,D]2 [DF]2 [B,E]2 [EG]2 | %107
 [CF]4 [B,E]4 | [CF]2 [CF]4 [CF]2 | [B,F]4 z4 |][K:G][M:3/4] z2 z A,B,C | G,,D,G,F,G,A, | %112
 B,2- B,G,CB, | A,G,F,G,.F,.E, | D,3 [D,F,][E,G,][F,A,] | G,2 G,2 B,2- | B,4 B,^C | DA, B,D^CB, | %118
 ^A, z z2 F,2 | B,,6 | A,,4 A,2 | D,4 B,,2 | ^C,C, F,F, G,E, | A,E,A,B,A,G, | F,3 .D,.F,.A, | %125
 [A,D]2 z2 [B,D]2 | [D,A,D]3 A,F,D, | G,A, B,2 A,G, | F,F,F,F,F,F, | F,F,F,F,F,F, | %130
 [B,,B,][B,,B,][B,,B,][B,,B,][_B,,_B,][B,,B,] | [A,,A,][A,,A,]A,A,D,D, | G,G,=CC=C,C, | %133
 B,,^D,/F,/ B, .B,,.C,.B,, | !>!G,2 F, .B,,.C,.B,, | B,,B,,B,,B,,B,,B,, | E,3 E,G,E, | [B,F]6 | %138
 C,E,/A,/ C C,D,C, | B,,D,/G,/ B, B,,C,B,, | A,,4 B,,^C, | z2 z B,A,G, | G,2 F, z ^C2 | %143
 ^CA,D=CB,A, | G,B,DEDC | [G,B,]6 | [G,C]3 G,,C,E, | G,6 | G,>G,, G,, B,,D,G, | B,2 B,,2 A,2 | %150
 G,3 [F,B,] [E,B,]2 | [_E,G,]6 | [D,A,]2 D,2 D,2 | A,D,[G,B,]D,[F,C]D, | [G,B,]D,DDB,G, | %155
 A,D,G,D,F,D, | G,G,,G,G,=F,G, | E,G,_E,G,D,G, | ^C,A,=C,D,B,,D, | C2 E2 DC | [G,,B,]2 F,G,B,,C, | %161
 D,2 D,2 D,2 | G,,2 F,G,B,,C, | D,2 D,2 D,,2 | [G,,D,]2 z2 z2 |][K:D][M:4/4] z D,,G,,B,, D,2 D,,2 | %166
 .[B,,F,]2 .[A,,A,]2 .[D,A,] .[D,A,].[D,A,].[D,A,] | .[D,A,] D,,G,,B,, D,2 D,,2 | %168
 .[G,B,]2 .[G,B,]2 .[F,^A,] .[F,C].[F,C].[F,C] |!p! B,B,,D,B,, G,2 F,2 | z G,,B,,G,, B,A, A,2- | %171
 A,B, B,2 A, A,2 ^G, |!>(! A,3!>)! ^G, A,A,A,A, | A,,E,=C,A,, =F,,2 =F,2 | _B,,=F,D,B,, G,,2 G,2 | %175
 =C,G,E,C, B,,E,D,B,, | [=CE][CE][^DF][DF]!p! [E^G]2 [^G,B,][G,B,] | A,A,[A,E][A,F] ^A,2 B,2 | %178
 C^A,B,C B,F,B,B, | DB,CD A,4 | [DF][DF][DFA][DFA] [B,FA][B,FA][B,FA][B,FA] | %181
 [D=F^G]3 [DFG]/[DFG]/ [DFA][DFA][DF=B][DFB] | A8 | EGED CB,A,G, | F,2 A,2 G,4 | E,4 F,2 E,2 | %186
 E,2 A,4 D2 | C3 B, ^A,4 | B,2 C2 B,4 | [^A,C][A,C][A,C][A,C] [A,C]A,C.E | D2 ^A,2 B,2 =A,F, | %191
 G,2 ED C=B,A,G, | F,EDC B, F,D=C | B, D,B,[B,^D] G,2 E,^G, | A,2 B,C DD/D/ DD | %195
 D [F,A,D]2 [G,A,C] [F,A,D]2 DD | D4 D2 z2 |][M:4/4] [D,A,]2 | [D,A,]4 [D,A,]4 | [B,,G,]3 B, B,4 | %200
 E2 D2 D2 C2 | [D,A,]2 D,>D, D,2 [D,A,]2 | [D,A,]4 [D,A,]4 | [B,,B,]4 [B,,B,]4 | %204
 ^A,2 B,2 =A,2 ^G,2 | A,2 A,6 | A,8- | A,8 | _B,8 | =C8 | _B,4 G,4 | =F,6 E,2 | D,4 A,4 | %213
 _B,4 =F,4- | F,6 =F,2 | _A,8 | G,6 =C2- | C4 A,4- | A,4 E,4 | =F,4 E,4- | E,2 C2 D2 E2 | A,4 D4 | %222
 A,2 A,>A, A,2 A,2 | [D=F]4 [B,DF]4 | A,8- | A,8- | A,8 | D2 [D,A,]2 [D,A,]2 [D,A,]2 | %228
 [E,A,]4 [D,A,]2 z2 | [D,A,]4 [D,A,]2 [D,A,]2 | [E,A,]4 [D,A,]2 z2 | z4 B,2 B,2 | A,3 A, B,4 | %233
 D4 B,4 | [F,^A,]F,,^A,,C, F,G,F,E, | D,E,D,C, B,,C,B,,A,, | G,,G,,B,,D, G,A,G,F, | %237
 E,F,E,D, C,D,C,B,, | A,2 [A,CE]2 [A,CE]2 [A,CA]2 | [A,FA]2 [A,EGA][A,A] [A,FA]2 [DF]2 | %240
 [DG]2 [B,D]2 [B,E]2 [B,E-]2 | [A,E]2 [A,DF]>[A,DF] [A,EG]2 [A,EG]2 | [A,DF]2 z2 [D-=F]4 | %243
 [D^F]2 z2 [E,A,]4 | [D,F,A,]2 z2 z4 |][M:6/8] D,3 F,2 G, | A,3 A,,B,,C, | D,3 D,E,F, | %248
 =C B,2 G,A,G, | [F,A,-]3 A,3 | A,6 | D3 C3 | [D,A,][D,F,A,][D,F,A,] [D,F,A,] z z | F,,3 E,2 E, | %254
 D,3 C,3 | B,,3 E,,3 | B,3 ^A,3 | F,6 | ^G,6 | A,3 ^G,3 | A,3 B,3 | [CE]3 [B,^D]3 | [B,E]2 z z3 | %263
 A,B,C DB,^G, | [E,^G,][F,A,][G,B,] [A,C][A,C][B,D] | [CE]2 [CE] [B,E]2 [B,E] | [^A,C]3 A,B,C | %267
 B,6 | C,2 B,, A,,B,,C, | D,3 D3 | EDE DC=C | B,3 D3 | CCE CB,^A,- | A,B,C DED | !/![A,,A,]6 | %275
 !/![A,,A,]6 | !/![_B,,_B,]6 | !/![A,,A,]6 | !/![A,,A,]6 | [A,,A,][A,,A,][A,,A,] [A,,A,][A,,A,]A, | %280
 _B,3 [=F,A,]3 | G,3 =F,3 | A,3 ^G,3 | [A,^C]2 z [A,C][B,D][CE] | [D=F][DF][DF] [DF][DF][DF] | %285
 [CE][CE][CE] [CE][D=F][=CE] | [B,D][B,D][B,D] B,3 | A,3 B,3 | =CDE D^G,A, | B,3 E2 E | =F6 | E6 || %292
[K:C][M:4/4] C4 D2 D2 | C3 C C2 E2 | D4 ^D2 D2 | E2 E2 z E,^G,B, | B,4 B,2 B,2 | B,3 B, B,2 B,2 | %298
 E4 E2 E2 | E2 C2 z4 | C8 | [_B,-F]2 [B,E]6 | [A,D]8 | [G,-D]2 [G,^C-]4 [A,C]2 | [A,D]8 | %305
 [G,_B,]8 | ^F,8 | G,8 | [F,_A,]4- [F,A,] DFD | [F,=A,D]6 [F,A,D]2 | [F,_B,D]4 [D,D]4 | E4 G4 | %312
 [A,DF]8 | E4 =G2 E2 | F4 [B,F^G]4 | [^CEA]2 [A,CE]2 z4 | z4!p! [A,,G,]4 ||[K:D] F,4 B,4 | A,8 | %319
 C4 D2 A,2- | A,2 z2 z2 A,2 | C6 B,2 | A,6 ^A,2 | B,8 | C8 | F4 E2 D2 | C4 .E,2 .G,2 | %327
 F,2 E,D, C,2 A,,2 | D,2 F,2 C2 C2 | D4 C2 E2 | D2 CB, A,2 G,2 | A,2 [F,A,D]>[F,A,D] [F,A,D]2 D2 | %332
 D2 [DG]>[B,DG] [B,DG]2 D2 | C2 D2 G2 F2 | EA,DA, ^DA,EA, | A,D=CD B,DB,D | A,F.F.D A,2 [A,G]>A | %337
 [DF]2 z2 C2 C2 | [D,A,D]2 z2 [A,,A,]4 | [D,A,]2 z2 z4 |] %340
V:7
 x8 | x8 | C4 D2 E2 | [FA]4 D4 | x8 | x8 | x8 | [DF]4 B,4 | x8 | x8 | x8 | x8 | C8- | C8 | x8 | %15
 x8 | x8 | x8 | D4 C4 | x8 | x8 | x8 | x8 | x8 | [D^G]8 | x8 | z2 [CE]2 [CE]2 [CE]2 | x8 | %28
 D2 C2 C2 DE | x8 | (A,CEA) G2 [=F^G]2 | [EA]2 [CG]2 [DF]2 [A,E]2 | A,8 | A,8 | x8 | x8 | F8 | %37
 G4 F4 | F2 E4 D2 | x8 | x8 | x8 | x8 | x8 | x8 | x8 | x8 | x8 | x8 |][M:4/4] x8 | x8 | x8 | %52
 z2 (CD) E2 F2 | x8 | x8 | B,4 C2 B,2 | x8 | [B,D]6 C2 | D6 E2 | z4 B,4 | x8 | x4 D4- | %62
 D2 CB, CEFG | x8 | x8 | x8 | x8 | x8 | x8 | x8 | (A2 ^GF) G2 G2 | A8 | A8 | x8 | x8 | x8 | x8 | %77
 x8 | E8 | x8 | E4 ^D4 | E4 =F4 | x8 | x8 | x8 | x8 | x8 | x8 | x8 | F4 F4 | D4 D4- | D4 C4 | x8 | %93
 D4 C4 | x8 | x8 | D8- | D8 | x8 | x8 | z2 (F2 G2) C2 | E2 (E2 F2) E2 | D2 D2 [EG]4 | x8 | x8 | %105
 x8 | x8 | x8 | x8 | x8 |][K:G][M:3/4] x6 | D6- | D4 ED | C4 ^C2 | x6 | x6 | E4 D2 | x6 | x6 | %119
 B,^C D2 D2 | ^CCEGFE | DE F2 F2 | ^E2 =E2 D2- | D2 ^C4 | x6 | x6 | x6 | D4 ^C2 | x6 | x6 | D4 x2 | %131
 G2 F2 A2 | [DG][DG] EEEE | x6 | x6 | ([^A,^C]2 [B,^D])([B,D][CE][DF]) | E6 | x6 | B2 A2 z2 | %139
 D3 DED | [EG]2 [DF]2 DE | D3 x3 | x6 | x2 z F3 | G4 F2 | x6 | x6 | x6 | x6 | x6 | x6 | ^C6 | x6 | %153
 D6 | x6 | [Dd]6- | [Dd]4 [DG-]2 | G G2 G2 G | EGFA [DG]2 | E(GAG) F2 | x6 | x2 F4 | x6 | %163
 x2 [B,D]2 [A,C]2 | x6 |][K:D][M:4/4] x8 | x8 | x8 | x8 | z2 [DF]2 [CE]4 | [B,D-]4 DC DE | x8 | %172
 (CE) (ED) C x3 | [A,=C]4- [A,C](=F,A,C) | _B,4 =B,(G,B,D) | x8 | x8 | x8 | x8 | x8 | x8 | x8 | %182
 x4 (c2 B2) | x4 ED C2 | D8 | C4 D4 | C4 D2 F2 | E8 | D2 C2 D2 C2 | x8 | z4 z (DE).A | G2 E3 CDE | %192
 F4 F x2 F | x8 | x8 | x8 | d4 x4 |][M:4/4] x2 | x8 | x8 | x8 | x8 | x8 | x8 | x8 | C2 (C2 D2 E2) | %206
 x8 | x8 | D8- | D8- | D8 | ^C8 | D8- | D4 =C4 | _B,6 B,2 | D8 | =C6 x2 | =F4 ^C4 | D4 A,4- | %219
 A,4 ^G,4 | A,2 A6 | x8 | A2 A>A A2 A2 | x8 | x8 | x8 | x8 | x8 | C4 D2 x2 | x8 | C4 D2 x2 | %231
 z4 F2 F2 | F3 F D4 | F4 E2 D2 | x8 | x8 | x8 | x8 | x8 | x8 | z G3- G4 | x8 | x8 | x8 | x8 |] %245
[M:6/8] x6 | x6 | (EDC) (DC=C) | ^DE=D C3 | D6 | E3- EFE | (AGF) (GAG) | x6 | x6 | [B,D]3 [^A,E]3 | %255
 [B,D]6 | x6 | x6 | x6 | z3 [Dd]3 | x6 | A3- ABF | x6 | E3- (E^GB) | x6 | x6 | x6 | D6 | %268
 E(ED) (CDE) | F F2 (DF^G) | A^GA (FE^D) | E6 | x6 | F3 ^G3 | x6 | x6 | x6 | x6 | x6 | x6 | x6 | %281
 x6 | x6 | x6 | x6 | x6 | A3 ^G3 | E6 | (EDC) (D2 ^D) | x6 | A6 | ^G6 ||[K:C][M:4/4] E4 F2 F2 | %293
 E3 E E2 A2 | A4 A2 A2 | ^G2 E2 x4 | ^G4 A2 A2 | ^G3 G G2 z2 | z2 ^G2 B2 G2 | E2 E2 z4 | x8 | x8 | %302
 x8 | x8 | x8 | x8 | C8 | _B,8 | x8 | x8 | x8 | x8 | x8 | x8 | x8 | x8 | x8 ||[K:D] x8 | D8 | x8 | %320
 z2 z2 z2 z2 | F4 ^E4 | z2 C4 D2 | x8 | x8 | F4 ^G4 | x8 | x8 | x8 | x8 | x8 | x8 | x8 | A8- | %334
 A2 G2 F2 E2 | x8 | x8 | x8 | x8 | x8 |] %340
V:8
 x8 | x8 | x8 | x8 | x8 | x8 | F,2 E,2 D,2 C,2 | B,,4 B,,4 | x8 | x8 | x8 | x8 | G,4 F,4 | %13
 E,4 G,4 | F,2 E,2 D,2 C,2 | B,,6 B,,2 | x8 | G,,8 | F,,8 | B,2 A,2 G,2 F,2 | E,2 D,2 x4 | %21
 A,,2 G,2 F,2 E,2 | D,2 =C,2 _B,,2 A,,2 | G,,4 G,,4 | x8 | A,,6 x2 | x8 | A,,8- | A,,4 A,,4- | %29
 A,,8- | x8 | x8 | x8 | x8 | F,4 C,2 F,2 | ^G,4 F,4 | B,4 A,4 | G,4 D,4 | B,,2 C,2 D,2 F,2 | %39
 A,4 z4 | x8 | x8 | x8 | F,4 E,2 D,2 | C,2 B,,2 A,,2 G,,2 | F,,2 F,,2 G,,2 B,,2 | A,,4 A,,4 | %47
 D,2 x2 A,,2 x2 | D,,2 x6 |][M:4/4] z2 B,,C, .D,2 .E,2 | F,4 F,,4 | z2 B,,C, .D,2 .E,2 | %52
 F,4 F,,2 F,2- | F,2 E,4 D,2- | D,2 C,2 B,,2 ^A,,2 | x8 | x8 | x8 | x8 | x8 | x8 | F,4 B,2 G,2 | %62
 x8 | x8 | x8 | x8 | x8 | x8 | x8 | x8 | x8 | x8 | x8 | B,4 E,4 | x8 | x8 | x8 | x8 | x8 | =C,8 | %80
 ^C,4 B,,4 | E,4 D,4 | x8 | x8 | x8 | E,4 F,4 | G,4 C,2 C,2 | x8 | x8 | B,,4 F,4 | G,4 D,4 | A,,8 | %92
 x8 | A,,6 A,,2 | x8 | x8 | x8 | F,4 ^E,4 | x8 | E,2 E,2 F,2 E,2 | D,2 D,2 E,2 G,2 | F,8 | x8 | %103
 F,2 E,2 D,2 B,,2 | E,2 D,2 C,2 B,,2 | ^A,,2 E,2 D,2 C,2 | B,,2 B,2 G,2 E,2 | F,4 G,4 | F,4 F,,4 | %109
 B,,4 x4 |][K:G][M:3/4] G,,6- | x6 | x6 | x6 | x6 | G,G,,B,,D, G,F, | E,E,,G,,B,, E,^A,, | %117
 B,,F,, G,,2 [G,,^C,-]2 | [F,,C,]2 x4 | x6 | x6 | x6 | x6 | A,,6 | D,2 D,, x3 | D,2 x2 G,2 | x6 | %127
 B,,A,, G,,G,,A,,A,, | D,3 D,^C,B,, | ^A,,3 E,D,^C, | x6 | x6 | x6 | x6 | B,,B,, B,, x3 | x6 | x6 | %137
 D,3 D,F,D, | C,3 x3 | B,,3 x3 | x6 | D,D, D,4- | D,D, D,4- | D,D, D,4- | D,2 D,2 D,2 | x6 | x6 | %147
 x6 | x6 | x6 | x6 | x6 | x6 | x6 | x6 | x6 | x6 | x6 | x6 | C,B,, A,,2 D,2 | x6 | x6 | x6 | x6 | %164
 x6 |][K:D][M:4/4] x8 | x8 | x8 | x8 | x8 | z4 E,2 D,C, | D,2 C,2 F,2 B,,E, | %172
 A,,C, E,2 A,, z z A,, | x8 | x8 | x8 | A,,2 A,2 E,E,E,D, | ^C,4 C,2 B,,2 | ^A,,F,,^G,,A,, B,,4 | %179
 B,,G,,A,,B,, C,4 | D,2 D,2 D,2 D,2 | B,,2 _B,,2 A,,2 ^G,,2 | [D=F]4 E2 [DF]2 | A,,2 z2 z2 A,,2 | %184
 D,4 B,,2 G,,2 | A,,4 D,2 G,,2 | A,,3 A,, D,2 B,,2 | C,4 F,2 F,F, | B,2 =A,2 ^G,2 C,2 | %189
 F,F,F,F, F, z z2 | x8 | z E,G,_B, A,G,F,E, | D,C,B,,^A,, B,, z z D, | G, z z B,, E,D,C,B,, | %194
 A,,=G,F,E, D,C,B,,_B,, | A,,4 D,2 z2 | z2 [G,,G,_B,]2 [D,A,]2 x2 |][M:4/4] x2 | x8 | x8 | %200
 A,2 A,2 A,4 | x8 | x8 | x8 | F,2 B,2 E,4 | A,,2 A,,2 B,,2 C,2 | D,2 D,2 D,2 D,2 | %207
 =C,2 C,2 C,2 =F,2 | _B,,2 B,,2 B,,2 B,,2 | A,,2 A,,2 A,,2 D,2 | G,,2 G,,2 E,2 E,2 | %211
 A,,2 A,,2 A,,2 A,,2 | _B,,2 B,,2 A,,2 A,,2 | G,,2 G,,2 A,,2 A,,2 | _B,,2 B,,2 B,,2 B,,2 | %215
 _B,,2 B,,2 =B,,2 B,,2 | =C,2 C,2 C,2 C,2 | =F,2!>(! F,2 E,2 E,2 | D,2 D,2!>)! =C,2 C,2 | %219
 B,,2 B,,2 E,,2 E,,2 | A,,2 A,,2 A,,2 A,,2 | =F,A,.F,.E, D,F,E,D, | A,2 A,,2 A,,2 A,,2 | %223
 D,A,,.D,.E, =F,E,F,D, | A,2 A,,2 B,,2 C,2 | D,2 E,2 =F,2 ^F,2 | G,2 A,2 B,2 C2 | x8 | x6 x2 | x8 | %230
 x6 x2 | x8 | F,3 F, G,4 | D,4 E,4 | x8 | x8 | x8 | x8 | A,,2 E,2 C,2 A,,2 | D,2 E,2 F,2 D,2 | %240
 G,A,G,F, E,F,E,D, | C,2 D,2 A,2 A,,2 | D,2 x2 B,4 | A,2 x2 A,,4 | x8 |][M:6/8] x6 | x6 | x6 | %248
 G,3 A,,3 | D,3 D,3- | D,C,B,, C,D,C, | B,,B,,B,, A,,A,,A,, | x6 | x6 | x6 | x6 | F,,3 F,3 | B,,6 | %258
 E,,3 D,2 D, | C,3 B,,3 | A,,3 ^G,,3 | F,,2 F, B,,3 | E,2 x4 | x6 | x6 | x6 | z3 F,,^G,,^A,, | %267
 B,,3 B,,2 B,, | x6 | x3 B,,B,,B,, | A,,B,,C, D,E,F, | E,E,E, E,,E,,E,, | A,,3 ^A,,B,,C, | %273
 D,3 E,3 | x6 | x6 | x6 | x6 | x6 | x6 | x6 | G,3 D,3 | E,E,E, E,,E,,E,, | A,,2 x4 | x6 | x6 | %286
 z3 E,E,E, | A,A,A, =G,G,G, | =F,F,F, F,F,F, | E,E,E, z3 | x6 | x6 ||[K:C][M:4/4] A,4 D,2 D,2 | %293
 A,3 A,, A,,2 A,2 | F,4 F,2 F,2 | E,2 E,2 x4 | E,4 F,2 F,2 | E,3 E, E,2 z2 | z2 E,2 ^G,2 E,2 | %299
 A,2 A,,2 x4 | A,A,A,A, A,A,A,A, | G,G,G,G, G,G,G,G, | G,G,F,F, F,F,F,F, | E,E,E,E, E,E,A,,A,, | %304
 D,D,D,D, D,D,F,,F,, | G,,2 G,,2 G,,2 G,,2 | A,,2 A,,2 A,,2 A,,2 | _B,,2 B,,2 B,,2 B,,2 | %308
 _B,,2 B,,2 B,,2 B,,2 | A,,2 A,,2 A,,2 A,,2 | ^G,,2 G,,2 G,,2 G,,2 | A,,2 E,2 ^C,2 A,,2 | %312
 A,,2 F,2 D,2 A,,2 | A,,2 E,2 ^C,2 A,,2 | A,,2 F,2 D,2 A,,2 | A,2 A,,2 x4 | x8 ||[K:D] D,4 G,4 | %318
 D,4 F,2 D,2 | A,,4 B,,2 C,2 | D,2 D,2 F,2 D,2 | C,8 | F,8 | G,4 E,4 | A,4 F,4 | B,,4 E,4 | %326
 A,,4 z4 | x8 | z4 A,2 G,2 | F,2 G,2 A,2 ^A,2 | B,2 A,G, F,2 E,2 | D,2 z2 z2 =C2 | %332
 B,2 B,2 z2 _B,2 | A,2 A,A, A,2 A,2 | A,,2 B,,2 =C,2 ^C,2 | D,2 F,2 G,2 E,2 | A,4 A,,4 | %337
 D,2 x2 A,2 A,2 | x8 | x8 |] %340
V:9
 x8 | x8 | x8 | x8 | x8 | x8 | x8 | x8 | x8 | x8 | x8 | x8 | x8 | x8 | x8 | x8 | x8 | x8 | x8 | %19
 x8 | x8 | x8 | x8 | x8 | x8 | x8 | x8 | x8 | x8 | x8 | x8 | x8 | x8 | x8 | x8 | x8 | x8 | x8 | %38
 x8 | x8 | x8 | x8 | x8 | x8 | x8 | x8 | x8 | x8 | x8 |][M:4/4] x8 | x8 | x8 | x8 | x8 | x8 | x8 | %56
 x8 | x8 | x8 | x8 | x8 | x8 | x8 | x8 | x8 | x8 | x8 | x8 | x8 | x8 | x8 | x8 | x8 | x8 | x8 | %75
 x8 | x8 | x8 | x8 | x8 | x8 | x8 | x8 | x8 | x8 | x8 | x8 | x8 | x8 | x8 | x8 | x8 | x8 | x8 | %94
 x8 | x8 | x8 | x8 | x8 | x8 | x8 | x8 | x8 | x8 | x8 | x8 | x8 | x8 | x8 | x8 |][K:G][M:3/4] x6 | %111
 x6 | x6 | x6 | x6 | x6 | x6 | x6 | x6 | x6 | x6 | x6 | x6 | x6 | x6 | x6 | x6 | x6 | x6 | x6 | %130
 x6 | x6 | x6 | x6 | x6 | x6 | x6 | x6 | x6 | x6 | x6 | x6 | x6 | x6 | x6 | x6 | x6 | x6 | x6 | %149
 x6 | x6 | x6 | x6 | x6 | x6 | x6 | x6 | x6 | x6 | x6 | x6 | x6 | x6 | x6 | x6 |][K:D][M:4/4] x8 | %166
 x8 | x8 | x8 | x8 | x8 | x8 | x8 | x8 | x8 | x8 | x8 | x8 | x8 | x8 | x8 | x8 | A,,8- | x8 | x8 | %185
 x8 | x8 | x8 | x8 | x8 | x8 | x8 | x8 | x8 | x8 | x8 | x8 |][M:4/4] x2 | x8 | x8 | x8 | x8 | x8 | %203
 x8 | x8 | x8 | x8 | x8 | x8 | x8 | x8 | x8 | x8 | x8 | x8 | x8 | x8 | x8 | x8 | x8 | x8 | x8 | %222
 x8 | x8 | x8 | x8 | x8 | x8 | x8 | x8 | x8 | x8 | x8 | x8 | x8 | x8 | x8 | x8 | x8 | x8 | x8 | %241
 x8 | x8 | x8 | x8 |][M:6/8] x6 | x6 | x6 | x6 | x6 | x6 | x6 | x6 | x6 | x6 | x6 | x6 | x6 | x6 | %259
 x6 | x6 | x6 | x6 | x6 | x6 | x6 | x6 | x6 | x6 | x6 | x6 | x6 | x6 | x6 | x6 | x6 | x6 | x6 | %278
 x6 | x6 | x6 | x6 | x6 | x6 | x6 | x6 | x6 | x6 | x6 | x6 | x6 | x6 ||[K:C][M:4/4] x8 | x8 | x8 | %295
 x8 | x8 | x8 | x8 | x8 | x8 | x8 | x8 | x8 | x8 | x8 | x8 | x8 | x8 | x8 | x8 | x8 | x8 | x8 | %314
 x8 | x8 | x8 ||[K:D] x8 | x8 | x8 | x8 | x8 | x8 | x8 | x8 | x8 | x8 | x8 | x8 | x8 | x8 | x8 | %332
 x8 | x8 | x8 | x8 | x8 | x8 | x8 | x8 |] %340
V:10
 x8 | x8 | x8 | x8 | x8 | x8 | x8 | x8 | x8 | x8 | x8 | x8 | x8 | x8 | x8 | x8 | x8 | x8 | x8 | %19
 x8 | x8 | x8 | x8 | x8 | x8 | x8 | x8 | x8 | x8 | x8 | x8 | x8 | x8 | x8 | x8 | x8 | x8 | x8 | %38
 x8 | x8 | x8 | x8 | x8 | x8 | x8 | x8 | x8 | x8 | x8 |][M:4/4] x8 | x8 | x8 | x8 | x8 | x8 | x8 | %56
 x8 | x8 | x8 | x8 | x8 | x8 | x8 | x8 | x8 | x8 | x8 | x8 | x8 | x8 | x8 | x8 | x8 | x8 | x8 | %75
 x8 | x8 | x8 | x8 | x8 | x8 | x8 | x8 | x8 | x8 | x8 | x8 | x8 | x8 | x8 | x8 | x8 | x8 | x8 | %94
 x8 | x8 | x8 | x8 | x8 | x8 | x8 | x8 | x8 | x8 | x8 | x8 | x8 | x8 | x8 | x8 |][K:G][M:3/4] x6 | %111
 x6 | x6 | x6 | x6 | x6 | x6 | x6 | x6 | x6 | x6 | x6 | x6 | x6 | x6 | x6 | x6 | x6 | x6 | x6 | %130
 x6 | x6 | x6 | x6 | x6 | x6 | x6 | x6 | x6 | x6 | x6 | x6 | x6 | x6 | x6 | x6 | x6 | x6 | x6 | %149
 x6 | x6 | x6 | x6 | x6 | x6 | x6 | x6 | x6 | x6 | x6 | x6 | x6 | x6 | x6 | x6 |][K:D][M:4/4] x8 | %166
 x8 | x8 | x8 | x8 | x8 | x8 | x8 | x8 | x8 | x8 | x8 | x8 | x8 | x8 | x8 | x8 | x8 | x8 | x8 | %185
 x8 | x8 | x8 | x8 | x8 | x8 | x8 | x8 | x8 | x8 | x8 | x8 |][M:4/4] x2 | x8 | x8 | x8 | x8 | x8 | %203
 x8 | x8 | x8 | x8 | x8 | x8 | x8 | x8 | x8 | x8 | x8 | x8 | x8 | x8 | x8 | x8 | x8 | x8 | x8 | %222
 x8 | x8 | x8 | x8 | x8 | x8 | x8 | x8 | x8 | x8 | x8 | x8 | x8 | x8 | x8 | x8 | x8 | x8 | x8 | %241
 x8 | x8 | x8 | x8 |][M:6/8] x6 | x6 | x6 | x6 | x6 | x6 | x6 | x6 | x6 | x6 | x6 | x6 | x6 | x6 | %259
 x6 | x6 | x6 | x6 | x6 | x6 | x6 | x6 | x6 | x6 | x6 | x6 | x6 | x6 | x6 | x6 | x6 | x6 | x6 | %278
 x6 | x6 | x6 | x6 | x6 | x6 | x6 | x6 | x6 | x6 | x6 | x6 | x6 | x6 ||[K:C][M:4/4] x8 | x8 | x8 | %295
 x8 | x8 | x8 | x8 | x8 | x8 | x8 | x8 | x8 | x8 | x8 | x8 | x8 | x8 | x8 | x8 | [A,^C]8 | x8 | %313
 [A,^C]8 | [A,D]8 | x8 | x8 ||[K:D] x8 | x8 | x8 | x8 | x8 | x8 | x8 | x8 | x8 | x8 | x8 | x8 | %329
 x8 | x8 | x8 | x8 | x8 | x8 | x8 | x8 | x8 | x8 | x8 |] %340

